!!!!SEGMENT: pl-cz--iii-106--002_dankowski-adalbert--missa-e-gloria.krn
!!!cenid: 18xx:753
!!!COM: Dankowski, Adalbert
!!!COM-rismid: pe30000793
!!!CDT: ~1760-~1836
!!!CNT: Polish
!!!OPR: Missa E
!!!OTL: Gloria
!!!OMV: 002
!!!PDT:
!!!AGN: Sacred; Mass
!!!SMS-siglum: PL-CZ
!!!SMS-shelfmark: III-106
!!!SMS-shelfwork: 001-002 M
!!!SMS-variant:
!!!SMS-altvar:
!!!NIFC-rismid: 300000111
!!!system-decoration: [(s1,s2)][(s3,s4,s5,s6)][(s7,s8)]s9
!!!AIN: 1 alto 3 empty 1 organ 1 tenor 2 violn 1 vox
!!!key:
**kern	**dynam	**kern	**dynam	**kern	**dynam	**kern	**text	**dynam	**kern	**text	**dynam	**kern	**text	**dynam	**kern	**text	**dynam	**kern	**dynam	**kern	**dynam
*part9	*part9	*part8	*part8	*part7	*part7	*part6	*part6	*part6	*part5	*part5	*part5	*part4	*part4	*part4	*part3	*part3	*part3	*part2	*part2	*part1	*part1
*staff9	*	*staff8	*	*staff7	*	*staff6	*staff6	*	*staff5	*staff5	*	*staff4	*staff4	*	*staff3	*staff3	*	*staff2	*	*staff1	*
*Iorgan	*	*Ivioln	*	*Ivioln	*	*Iempty	*	*	*Itenor	*	*	*Ialto	*	*	*Ivox	*	*	*Iempty	*	*Iempty	*
*I"Organo	*	*I"Violino Secondo	*	*I"Violino Primo	*	*I"Baſso	*	*	*I"Tenore	*	*	*I"Alto	*	*	*I"Canto	*	*	*I"Clarino Secondo Ex D:	*	*I"Clarino Primo Ex D:	*
*I'org	*	*I'vl II	*	*I'vl I	*	*I'B	*	*	*I'T	*	*	*I'A	*	*	*I'C	*	*	*I'clno II	*	*I'clno I	*
*clefF4	*	*clefG2	*	*clefG2	*	*clefF4	*	*	*clefC4	*	*	*clefC3	*	*	*clefC1	*	*	*clefG2	*	*clefG2	*
*	*	*	*	*	*	*	*	*	*	*	*	*	*	*	*	*	*	*ITrd-1c-2	*	*ITrd-1c-2	*
*k[f#c#]	*	*k[f#c#]	*	*k[f#c#]	*	*k[f#c#]	*	*	*k[f#c#]	*	*	*k[f#c#]	*	*	*k[f#c#]	*	*	*k[f#c#]	*	*k[f#c#]	*
*D:	*	*D:	*	*D:	*	*D:	*	*	*D:	*	*	*D:	*	*	*D:	*	*	*D:	*	*D:	*
*M3/4	*	*M3/4	*	*M3/4	*	*M3/4	*	*	*M3/4	*	*	*M3/4	*	*	*M3/4	*	*	*M3/4	*	*M3/4	*
=1	=1	=1	=1	=1	=1	=1	=1	=1	=1	=1	=1	=1	=1	=1	=1	=1	=1	=1	=1	=1	=1
*	*	*	*	*	*	*	*	*	*	*	*	*	*	*	*2\right	*	*	*	*	*	*
!LO:TX:a:Bi:t=tutti	!	!	!	!	!	!	!	!	!LO:TX:a:t=P:problem=kolejność znaków c# F#	!	!	!	!	!	!	!	!	!	!	!	!
!LO:TX:a:B:t=allo	!	!LO:TX:a:B:t=allo	!	!LO:TX:a:B:t=allo	!	!LO:TX:a:B:t=allo:	!	!	!LO:TX:a:B:t=allo:	!	!	!LO:TX:a:B:t=allo:	!	!	!LO:TX:a:B:t=allo	!	!	!LO:TX:a:B:t=allo:	!	!LO:TX:a:B:t=allo:	!
!	!	!	!LO:DY:a	!	!LO:DY:a	!	!	!	!	!	!	!	!	!	!	!	!	!	!	!	!
4D\	.	8ff#\L	f	8ddd\L	f	4D\	Glo-	.	(4A\	Glo-	.	(4f#\	Glo-	.	2dd\	Glo-	.	4dd\	.	4ff#\	.
.	.	8dd\J	.	8ff#\	.	.	.	.	.	.	.	.	.	.	.	.	.	.	.	.	.
4G\	.	8e/L	.	8ee\	.	4G\	.	.	4B\)	.	.	4e\)	.	.	.	.	.	4dd\	.	4ee\	.
.	.	8dd/	.	8ddd\	.	.	.	.	.	.	.	.	.	.	.	.	.	.	.	.	.
4A\	.	8e/	.	8ee\	.	4A\	-ri-	.	4A\	-ri-	.	4e\	-ri-	.	4cc#\	-ri-	.	4a/	.	4ee\	.
.	.	8cc#/J	.	8ccc#\J	.	.	.	.	.	.	.	.	.	.	.	.	.	.	.	.	.
=2	=2	=2	=2	=2	=2	=2	=2	=2	=2	=2	=2	=2	=2	=2	=2	=2	=2	=2	=2	=2	=2
4D\	.	8dd\L	.	8ddd\L	.	4D\	-a	.	4A\	-a	.	4f#\	-a	.	4dd\	-a	.	4f#/	.	4dd\	.
.	.	8dd\	.	8ff#\	.	.	.	.	.	.	.	.	.	.	.	.	.	.	.	.	.
4r	.	8ee\	.	8gg\	.	4r	.	.	4r	.	.	4r	.	.	4r	.	.	4r	.	4r	.
.	.	8ff#\	.	8aa\	.	.	.	.	.	.	.	.	.	.	.	.	.	.	.	.	.
4r	.	8gg\	.	8bb\	.	4r	.	.	4r	.	.	4r	.	.	4r	.	.	4r	.	4r	.
.	.	8ee\J	.	8ccc#\J	.	.	.	.	.	.	.	.	.	.	.	.	.	.	.	.	.
=3	=3	=3	=3	=3	=3	=3	=3	=3	=3	=3	=3	=3	=3	=3	=3	=3	=3	=3	=3	=3	=3
*	*	*	*	*	*	*	*ij	*	*	*ij	*	*	*ij	*	*	*ij	*	*	*	*	*
4D\	.	8ff#\L	.	8ddd\L	.	(4D\	Glo-	.	(4A\	Glo-	.	(4f#\	Glo-	.	2dd\	Glo-	.	4dd\	.	4ff#\	.
.	.	8dd\J	.	8ff#\	.	.	.	.	.	.	.	.	.	.	.	.	.	.	.	.	.
4G\	.	8e/L	.	8ee\	.	4G\)	.	.	4B\)	.	.	4e\)	.	.	.	.	.	4dd\	.	4ee\	.
.	.	8dd/	.	8ddd\	.	.	.	.	.	.	.	.	.	.	.	.	.	.	.	.	.
4A\	.	8e/	.	8ee\	.	4A\	-ri-	.	4A\	-ri-	.	4e\	-ri-	.	4cc#\	-ri-	.	4a/	.	4ee\	.
.	.	8cc#/J	.	8ccc#\J	.	.	.	.	.	.	.	.	.	.	.	.	.	.	.	.	.
=4	=4	=4	=4	=4	=4	=4	=4	=4	=4	=4	=4	=4	=4	=4	=4	=4	=4	=4	=4	=4	=4
!	!	!LO:TX:a:t=P:problem=mixed beam	!	!	!	!	!	!	!	!	!	!	!	!	!	!	!	!	!	!	!
4D\	.	8dd\L	.	8ddd\L	.	4D\	-a	.	4A\	-a	.	4f#\	-a	.	4dd\	-a	.	4f#/	.	4dd\	.
.	.	8f#\	.	8dd\	.	.	.	.	.	.	.	.	.	.	.	.	.	.	.	.	.
*	*	*	*	*	*	*	*Xij	*	*	*Xij	*	*	*Xij	*	*	*Xij	*	*	*	*	*
4r	.	8g\	.	8ee\	.	4r	.	.	4r	.	.	4r	.	.	4r	.	.	4r	.	4r	.
.	.	8a\	.	8ff#\	.	.	.	.	.	.	.	.	.	.	.	.	.	.	.	.	.
4r	.	8b\	.	8gg\	.	4r	.	.	4r	.	.	4r	.	.	4r	.	.	4r	.	4r	.
.	.	8cc#\J	.	8ee\J	.	.	.	.	.	.	.	.	.	.	.	.	.	.	.	.	.
=5	=5	=5	=5	=5	=5	=5	=5	=5	=5	=5	=5	=5	=5	=5	=5	=5	=5	=5	=5	=5	=5
*	*	*	*	*	*	*2\right	*	*	*2\right	*	*	*2\right	*	*	*	*	*	*	*	*2\right	*
8D\L	.	16dd\LL	.	16ff#\LL	.	2D\	in	.	2d\	in	.	2a\	in	.	2ff#\	in	.	2.d/	.	2.dd\	.
.	.	16dd\	.	16ff#\	.	.	.	.	.	.	.	.	.	.	.	.	.	.	.	.	.
8D\	.	16dd\	.	16dd\	.	.	.	.	.	.	.	.	.	.	.	.	.	.	.	.	.
.	.	16dd\JJ	.	16dd\JJ	.	.	.	.	.	.	.	.	.	.	.	.	.	.	.	.	.
8D\	.	16ff#\LL	.	16ff#\LL	.	.	.	.	.	.	.	.	.	.	.	.	.	.	.	.	.
.	.	16ff#\	.	16ff#\	.	.	.	.	.	.	.	.	.	.	.	.	.	.	.	.	.
8D\	.	16dd\	.	16dd\	.	.	.	.	.	.	.	.	.	.	.	.	.	.	.	.	.
.	.	16dd\JJ	.	16dd\JJ	.	.	.	.	.	.	.	.	.	.	.	.	.	.	.	.	.
8D\	.	16aa\LL	.	16aa\LL	.	4D\	ex-	.	4d\	ex-	.	4a\	ex-	.	4ff#\	ex-	.	.	.	.	.
.	.	16aa\	.	16aa\	.	.	.	.	.	.	.	.	.	.	.	.	.	.	.	.	.
8D\J	.	16ff#\	.	16ff#\	.	.	.	.	.	.	.	.	.	.	.	.	.	.	.	.	.
.	.	16ff#\JJ	.	16ff#\JJ	.	.	.	.	.	.	.	.	.	.	.	.	.	.	.	.	.
=6	=6	=6	=6	=6	=6	=6	=6	=6	=6	=6	=6	=6	=6	=6	=6	=6	=6	=6	=6	=6	=6
*2\right	*	*	*	*	*	*	*	*	*	*	*	*	*	*	*	*	*	*	*	*	*
*tremolo	*	*	*	*	*	*	*	*	*	*	*	*	*	*	*	*	*	*	*	*	*
8D\L	.	16gg\LL	.	16gg\LL	.	2D\	-cel-	.	2d\	-cel-	.	2b\	-cel-	.	2gg\	-cel-	.	2.d/	.	2.dd\	.
.	.	16gg\	.	16gg\	.	.	.	.	.	.	.	.	.	.	.	.	.	.	.	.	.
8D\	.	16dd\	.	16dd\	.	.	.	.	.	.	.	.	.	.	.	.	.	.	.	.	.
.	.	16dd\JJ	.	16dd\JJ	.	.	.	.	.	.	.	.	.	.	.	.	.	.	.	.	.
8D\	.	16gg\LL	.	16gg\LL	.	.	.	.	.	.	.	.	.	.	.	.	.	.	.	.	.
.	.	16gg\	.	16gg\	.	.	.	.	.	.	.	.	.	.	.	.	.	.	.	.	.
8D\	.	16dd\	.	16dd\	.	.	.	.	.	.	.	.	.	.	.	.	.	.	.	.	.
.	.	16dd\JJ	.	16dd\JJ	.	.	.	.	.	.	.	.	.	.	.	.	.	.	.	.	.
8D\	.	16bb\LL	.	16bb\LL	.	4D\	-sis	.	4d\	-sis	.	4b\	-sis	.	4gg\	-sis	.	.	.	.	.
.	.	16bb\	.	16bb\	.	.	.	.	.	.	.	.	.	.	.	.	.	.	.	.	.
8D\J	.	16gg\	.	16gg\	.	.	.	.	.	.	.	.	.	.	.	.	.	.	.	.	.
.	.	16gg\JJ	.	16gg\JJ	.	.	.	.	.	.	.	.	.	.	.	.	.	.	.	.	.
=7	=7	=7	=7	=7	=7	=7	=7	=7	=7	=7	=7	=7	=7	=7	=7	=7	=7	=7	=7	=7	=7
*	*	*	*	*	*	*	*	*	*	*	*	*	*ij	*	*	*ij	*	*	*	*	*
8D\L	.	16ff#\LL	.	16ff#\LL	.	8D\	in	.	8d\	in	.	8a\	in	.	8ff#\	in	.	2d/	.	2dd\	.
.	.	16ff#\	.	16ff#\	.	.	.	.	.	.	.	.	.	.	.	.	.	.	.	.	.
8D\	.	16dd\	.	16dd\	.	8D\	ex-	.	8d\	ex-	.	8a\	ex-	.	8ff#\	ex-	.	.	.	.	.
.	.	16dd\JJ	.	16dd\JJ	.	.	.	.	.	.	.	.	.	.	.	.	.	.	.	.	.
8D\	.	16ff#\LL	.	16ff#\LL	.	4D\	-cel-	.	4d\	-cel-	.	4a\	-cel-	.	4ff#\	-cel-	.	.	.	.	.
.	.	16ff#\	.	16ff#\	.	.	.	.	.	.	.	.	.	.	.	.	.	.	.	.	.
8D\	.	16dd\	.	16dd\	.	.	.	.	.	.	.	.	.	.	.	.	.	.	.	.	.
.	.	16dd\JJ	.	16dd\JJ	.	.	.	.	.	.	.	.	.	.	.	.	.	.	.	.	.
8D\	.	16ff#\LL	.	16aa\LL	.	4D\	-sis	.	4A\	-sis	.	4f#\	-sis	.	4dd\	-sis	.	4dd\	.	4ff#\	.
.	.	16ff#\	.	16aa\	.	.	.	.	.	.	.	.	.	.	.	.	.	.	.	.	.
8D\J	.	16dd\	.	16ff#\	.	.	.	.	.	.	.	.	.	.	.	.	.	.	.	.	.
.	.	16dd\JJ	.	16ff#\JJ	.	.	.	.	.	.	.	.	.	.	.	.	.	.	.	.	.
*	*	*	*	*	*	*	*	*	*	*	*	*	*Xij	*	*	*Xij	*	*	*	*	*
*Xtremolo	*	*	*	*	*	*	*	*	*	*	*	*	*	*	*	*	*	*	*	*	*
=8	=8	=8	=8	=8	=8	=8	=8	=8	=8	=8	=8	=8	=8	=8	=8	=8	=8	=8	=8	=8	=8
4A\	.	8dd\L	.	8ff#\L	.	4A\	De-	.	4A\	De-	.	4f#\	De-	.	4dd\	De-	.	4dd\	.	4ff#\	.
.	.	16cc#\L	.	16ee\L	.	.	.	.	.	.	.	.	.	.	.	.	.	.	.	.	.
.	.	16dd\JJ	.	16ff#\JJ	.	.	.	.	.	.	.	.	.	.	.	.	.	.	.	.	.
4AA/	.	4cc#\	.	4ee\	.	4AA/	-o	.	4A\	-o	.	4e\	-o	.	4cc#\	-o	.	4a/	.	4ee\	.
4r	.	4r	.	4r	.	4r	.	.	4r	.	.	4r	.	.	4r	.	.	4r	.	4r	.
=9	=9	=9	=9	=9	=9	=9	=9	=9	=9	=9	=9	=9	=9	=9	=9	=9	=9	=9	=9	=9	=9
!	!LO:DY:a	!	!LO:DY:a	!	!LO:DY:a	!	!	!	!	!	!	!	!	!	!LO:TX:a:t=Solo:	!	!	!	!	!	!
4r	p	4r	p	4dd\	p	2.r	.	.	2.r	.	.	2.r	.	.	(4dd\	(et)	.	2.r	.	2.r	.
4d\	.	4f#/	.	4a/	.	.	.	.	.	.	.	.	.	.	4a\)	.	.	.	.	.	.
4d\	.	4f#/	.	4a/	.	.	.	.	.	.	.	.	.	.	4a\	in	.	.	.	.	.
=10	=10	=10	=10	=10	=10	=10	=10	=10	=10	=10	=10	=10	=10	=10	=10	=10	=10	=10	=10	=10	=10
4r	.	4r	.	4.a/	.	2.r	.	.	2.r	.	.	2.r	.	.	(4.a\	ter-	.	2.r	.	2.r	.
4c#\	.	4e/	.	.	.	.	.	.	.	.	.	.	.	.	.	.	.	.	.	.	.
.	.	.	.	8b/	.	.	.	.	.	.	.	.	.	.	8b\)	.	.	.	.	.	.
4c#\	.	4e/	.	4a/	.	.	.	.	.	.	.	.	.	.	4a\	-ra	.	.	.	.	.
=11	=11	=11	=11	=11	=11	=11	=11	=11	=11	=11	=11	=11	=11	=11	=11	=11	=11	=11	=11	=11	=11
4r	.	4r	.	4dd\	.	2.r	.	.	2.r	.	.	2.r	.	.	(4dd\	pax	.	2.r	.	2.r	.
4B\	.	4d/	.	4g/	.	.	.	.	.	.	.	.	.	.	4g\)	.	.	.	.	.	.
4B\	.	4d/	.	4g/	.	.	.	.	.	.	.	.	.	.	4g\	ho-	.	.	.	.	.
=12	=12	=12	=12	=12	=12	=12	=12	=12	=12	=12	=12	=12	=12	=12	=12	=12	=12	=12	=12	=12	=12
4r	.	4r	.	4.g/	.	2.r	.	.	2.r	.	.	2.r	.	.	4.g\	-mi-	.	2.r	.	2.r	.
4A\	.	4c#/	.	.	.	.	.	.	.	.	.	.	.	.	.	.	.	.	.	.	.
.	.	.	.	8a/	.	.	.	.	.	.	.	.	.	.	8a\	-ni-	.	.	.	.	.
4A\	.	4c#/	.	4g/	.	.	.	.	.	.	.	.	.	.	4g\	-bus	.	.	.	.	.
=13	=13	=13	=13	=13	=13	=13	=13	=13	=13	=13	=13	=13	=13	=13	=13	=13	=13	=13	=13	=13	=13
*	*	*	*	*2\right	*	*	*	*	*	*	*	*	*	*	*	*	*	*	*	*	*
4r	.	4r	.	2dd\	.	2.r	.	.	2.r	.	.	2.r	.	.	2dd\	bo-	.	2.r	.	2.r	.
4G\	.	4B/	.	.	.	.	.	.	.	.	.	.	.	.	.	.	.	.	.	.	.
4G\	.	4B/	.	4dd\	.	.	.	.	.	.	.	.	.	.	4dd\	-na	.	.	.	.	.
=14	=14	=14	=14	=14	=14	=14	=14	=14	=14	=14	=14	=14	=14	=14	=14	=14	=14	=14	=14	=14	=14
*	*	*	*	*	*	*	*	*	*	*	*	*	*	*	*	*ij	*	*	*	*	*
4r	.	4r	.	4.dd\	.	2.r	.	.	2.r	.	.	2.r	.	.	4.dd\	bo-	.	2.r	.	2.r	.
4F#\	.	4A/	.	.	.	.	.	.	.	.	.	.	.	.	.	.	.	.	.	.	.
.	.	.	.	8ee\	.	.	.	.	.	.	.	.	.	.	8ee\	.	.	.	.	.	.
4F#\	.	4A/	.	4dd\	.	.	.	.	.	.	.	.	.	.	4dd\	-na	.	.	.	.	.
*	*	*	*	*	*	*	*	*	*	*	*	*	*	*	*	*Xij	*	*	*	*	*
=15	=15	=15	=15	=15	=15	=15	=15	=15	=15	=15	=15	=15	=15	=15	=15	=15	=15	=15	=15	=15	=15
4G\	.	4B/	.	4gg\	.	2.r	.	.	2.r	.	.	2.r	.	.	4gg\	Vo-	.	2.r	.	2.r	.
4G\	.	4b\	.	8gg\L	.	.	.	.	.	.	.	.	.	.	8gg\L	-lun-	.	.	.	.	.
.	.	.	.	8ff#\	.	.	.	.	.	.	.	.	.	.	8ff#\J	.	.	.	.	.	.
4G#X\	.	4b\	.	8ee\	.	.	.	.	.	.	.	.	.	.	8ee\L	.	.	.	.	.	.
.	.	.	.	8dd\J	.	.	.	.	.	.	.	.	.	.	8dd\J	.	.	.	.	.	.
=16	=16	=16	=16	=16	=16	=16	=16	=16	=16	=16	=16	=16	=16	=16	=16	=16	=16	=16	=16	=16	=16
4A\	.	4f#/	.	4dd\	.	2.r	.	.	2.r	.	.	2.r	.	.	4dd\	-ta-	.	2.r	.	2.r	.
8A\L	.	4e/	.	4cc#\	.	.	.	.	.	.	.	.	.	.	4cc#\	-tis	.	.	.	.	.
8Gn\	.	.	.	.	.	.	.	.	.	.	.	.	.	.	.	.	.	.	.	.	.
8F#\	.	4r	.	4r	.	.	.	.	.	.	.	.	.	.	4r	.	.	.	.	.	.
8E\J	.	.	.	.	.	.	.	.	.	.	.	.	.	.	.	.	.	.	.	.	.
=17	=17	=17	=17	=17	=17	=17	=17	=17	=17	=17	=17	=17	=17	=17	=17	=17	=17	=17	=17	=17	=17
!LO:TX:a:t=tutti	!	!LO:TX:a:t=P:problem=mixed beam	!LO:DY:a	!LO:TX:a:t=P:problem=mixed beam	!LO:DY:a	!	!	!	!	!	!	!	!	!	!	!	!	!	!	!	!
4D\	.	16ff#\LL	f	16ff#\LL	f	4D\	te	.	4A\	te	.	4f#\	te	.	4dd\	te	.	4dd\	.	4ff#\	.
.	.	16d\	.	16d\	.	.	.	.	.	.	.	.	.	.	.	.	.	.	.	.	.
.	.	16d\	.	16d\	.	.	.	.	.	.	.	.	.	.	.	.	.	.	.	.	.
.	.	16d\JJ	.	16d\JJ	.	.	.	.	.	.	.	.	.	.	.	.	.	.	.	.	.
4r	.	16f#/LL	.	16f#/LL	.	4r	.	.	4r	.	.	4r	.	.	4r	.	.	4r	.	4r	.
.	.	16f#/	.	16f#/	.	.	.	.	.	.	.	.	.	.	.	.	.	.	.	.	.
.	.	16d/	.	16d/	.	.	.	.	.	.	.	.	.	.	.	.	.	.	.	.	.
.	.	16d/JJ	.	16d/JJ	.	.	.	.	.	.	.	.	.	.	.	.	.	.	.	.	.
4r	.	16a/LL	.	16a/LL	.	4r	.	.	4r	.	.	4r	.	.	4r	.	.	4r	.	4r	.
.	.	16a/	.	16a/	.	.	.	.	.	.	.	.	.	.	.	.	.	.	.	.	.
.	.	16f#/	.	16f#/	.	.	.	.	.	.	.	.	.	.	.	.	.	.	.	.	.
.	.	16f#/JJ	.	16f#/JJ	.	.	.	.	.	.	.	.	.	.	.	.	.	.	.	.	.
=18	=18	=18	=18	=18	=18	=18	=18	=18	=18	=18	=18	=18	=18	=18	=18	=18	=18	=18	=18	=18	=18
4D\	.	16dd\LL	.	16dd\LL	.	4D\	Lau-	.	4A\	lau-	.	4a\	lau-	.	4ff#\	Lau-	.	4dd\	.	4ff#\	.
.	.	16dd\	.	16dd\	.	.	.	.	.	.	.	.	.	.	.	.	.	.	.	.	.
.	.	16a\	.	16a\	.	.	.	.	.	.	.	.	.	.	.	.	.	.	.	.	.
.	.	16a\JJ	.	16a\JJ	.	.	.	.	.	.	.	.	.	.	.	.	.	.	.	.	.
4d\	.	16ff#\LL	.	16ff#\LL	.	4D\	-da-	.	4A\	-da-	.	4a\	-da-	.	4ff#\	-da-	.	4dd\	.	4ff#\	.
.	.	16ff#\	.	16ff#\	.	.	.	.	.	.	.	.	.	.	.	.	.	.	.	.	.
.	.	16dd\	.	16dd\	.	.	.	.	.	.	.	.	.	.	.	.	.	.	.	.	.
.	.	16dd\JJ	.	16dd\JJ	.	.	.	.	.	.	.	.	.	.	.	.	.	.	.	.	.
4D\	.	16aa\LL	.	16aa\LL	.	4D\	-mus	.	4A\	-mus	.	4a\	-mus	.	4ff#\	-mus	.	4dd\	.	4ff#\	.
.	.	16aa\	.	16aa\	.	.	.	.	.	.	.	.	.	.	.	.	.	.	.	.	.
.	.	16ff#\	.	16ff#\	.	.	.	.	.	.	.	.	.	.	.	.	.	.	.	.	.
.	.	16ff#\JJ	.	16ff#\JJ	.	.	.	.	.	.	.	.	.	.	.	.	.	.	.	.	.
=19	=19	=19	=19	=19	=19	=19	=19	=19	=19	=19	=19	=19	=19	=19	=19	=19	=19	=19	=19	=19	=19
!	!	!LO:TX:a:t=P:problem=mixed beam	!	!LO:TX:a:t=P:problem=mixed beam	!	!	!	!	!	!	!	!	!	!	!	!	!	!	!	!	!
4A\	.	16ee\LL	.	16ee\LL	.	4A\	te	.	4A\	te	.	4a\	te	.	4ee\	te	.	4a/	.	4ee\	.
.	.	16ee\	.	16ee\	.	.	.	.	.	.	.	.	.	.	.	.	.	.	.	.	.
.	.	16A\	.	16A\	.	.	.	.	.	.	.	.	.	.	.	.	.	.	.	.	.
.	.	16A\JJ	.	16A\JJ	.	.	.	.	.	.	.	.	.	.	.	.	.	.	.	.	.
4r	.	16c#/LL	.	16c#/LL	.	4r	.	.	4r	.	.	4r	.	.	4r	.	.	4r	.	4r	.
.	.	16c#/	.	16c#/	.	.	.	.	.	.	.	.	.	.	.	.	.	.	.	.	.
.	.	16A/	.	16A/	.	.	.	.	.	.	.	.	.	.	.	.	.	.	.	.	.
.	.	16A/JJ	.	16A/JJ	.	.	.	.	.	.	.	.	.	.	.	.	.	.	.	.	.
4r	.	16e/LL	.	16e/LL	.	4r	.	.	4r	.	.	4r	.	.	4r	.	.	4r	.	4r	.
.	.	16e/	.	16e/	.	.	.	.	.	.	.	.	.	.	.	.	.	.	.	.	.
.	.	16c#/	.	16c#/	.	.	.	.	.	.	.	.	.	.	.	.	.	.	.	.	.
.	.	16c#/JJ	.	16c#/JJ	.	.	.	.	.	.	.	.	.	.	.	.	.	.	.	.	.
=20	=20	=20	=20	=20	=20	=20	=20	=20	=20	=20	=20	=20	=20	=20	=20	=20	=20	=20	=20	=20	=20
4A\	.	16a/LL	.	16a/LL	.	8A\	be-	.	8A\	be-	.	8g\	be-	.	8ee\	be-	.	4a/	.	4ee\	.
.	.	16a/	.	16a/	.	.	.	.	.	.	.	.	.	.	.	.	.	.	.	.	.
.	.	16e/	.	16e/	.	8A\	-ne-	.	8A\	-ne-	.	8g\	-ne-	.	8ee\	-ne-	.	.	.	.	.
.	.	16e/JJ	.	16e/JJ	.	.	.	.	.	.	.	.	.	.	.	.	.	.	.	.	.
4AA/	.	16cc#\LL	.	16cc#\LL	.	4A\	-di-	.	4A\	-di-	.	4g\	-di-	.	4ee\	-di-	.	4a/	.	4ee\	.
.	.	16cc#\	.	16cc#\	.	.	.	.	.	.	.	.	.	.	.	.	.	.	.	.	.
.	.	16a\	.	16a\	.	.	.	.	.	.	.	.	.	.	.	.	.	.	.	.	.
.	.	16a\JJ	.	16a\JJ	.	.	.	.	.	.	.	.	.	.	.	.	.	.	.	.	.
4A\	.	16ee\LL	.	16ee\LL	.	8A\	-ci-	.	8A\	-ci-	.	8g\	-ci-	.	8ee\	-ci-	.	4a/	.	4ee\	.
.	.	16ee\	.	16ee\	.	.	.	.	.	.	.	.	.	.	.	.	.	.	.	.	.
.	.	16cc#\	.	16cc#\	.	8A\	-mus	.	8A\	-mus	.	8g\	-mus	.	8ee\	-mus	.	.	.	.	.
.	.	16cc#\JJ	.	16cc#\JJ	.	.	.	.	.	.	.	.	.	.	.	.	.	.	.	.	.
=21	=21	=21	=21	=21	=21	=21	=21	=21	=21	=21	=21	=21	=21	=21	=21	=21	=21	=21	=21	=21	=21
!	!	!LO:TX:a:t=P:problem=mixed beam	!	!LO:TX:a:t=P:problem=mixed beam	!	!	!	!	!	!	!	!	!	!	!	!	!	!	!	!	!
4D\	.	16dd\LL	.	16dd\LL	.	4D\	te	.	4A\	te	.	4f#\	te	.	4dd\	te	.	4f#/	.	4dd\	.
.	.	16dd\	.	16dd\	.	.	.	.	.	.	.	.	.	.	.	.	.	.	.	.	.
.	.	16d\	.	16d\	.	.	.	.	.	.	.	.	.	.	.	.	.	.	.	.	.
.	.	16d\JJ	.	16d\JJ	.	.	.	.	.	.	.	.	.	.	.	.	.	.	.	.	.
4r	.	16f#/LL	.	16f#/LL	.	4r	.	.	4r	.	.	4r	.	.	4r	.	.	4r	.	4r	.
.	.	16f#/	.	16f#/	.	.	.	.	.	.	.	.	.	.	.	.	.	.	.	.	.
.	.	16d/	.	16d/	.	.	.	.	.	.	.	.	.	.	.	.	.	.	.	.	.
.	.	16d/JJ	.	16d/JJ	.	.	.	.	.	.	.	.	.	.	.	.	.	.	.	.	.
4r	.	16a/LL	.	16a/LL	.	4r	.	.	4r	.	.	4r	.	.	4r	.	.	4r	.	4r	.
.	.	16a/	.	16a/	.	.	.	.	.	.	.	.	.	.	.	.	.	.	.	.	.
.	.	16f#/	.	16f#/	.	.	.	.	.	.	.	.	.	.	.	.	.	.	.	.	.
.	.	16f#/JJ	.	16f#/JJ	.	.	.	.	.	.	.	.	.	.	.	.	.	.	.	.	.
=22	=22	=22	=22	=22	=22	=22	=22	=22	=22	=22	=22	=22	=22	=22	=22	=22	=22	=22	=22	=22	=22
4D\	.	16dd\LL	.	16dd\LL	.	8D\	a-	.	8d\	a-	.	8a\	a-	.	8ff#\	a-	.	4dd\	.	4ff#\	.
.	.	16dd\	.	16dd\	.	.	.	.	.	.	.	.	.	.	.	.	.	.	.	.	.
.	.	16a\	.	16a\	.	8D\	-do-	.	8d\	-do-	.	8a\	-do-	.	8ff#\	-do-	.	.	.	.	.
.	.	16a\JJ	.	16a\JJ	.	.	.	.	.	.	.	.	.	.	.	.	.	.	.	.	.
4d\	.	16ff#\LL	.	16ff#\LL	.	4D\	-ra-	.	4d\	-ra-	.	4a\	-ra-	.	4ff#\	-ra-	.	4dd\	.	4ff#\	.
.	.	16ff#\	.	16ff#\	.	.	.	.	.	.	.	.	.	.	.	.	.	.	.	.	.
.	.	16dd\	.	16dd\	.	.	.	.	.	.	.	.	.	.	.	.	.	.	.	.	.
.	.	16dd\JJ	.	16dd\JJ	.	.	.	.	.	.	.	.	.	.	.	.	.	.	.	.	.
4D\	.	16aa\LL	.	16aa\LL	.	4D\	-mus	.	4d\	-mus	.	4a\	-mus	.	4ff#\	-mus	.	4dd\	.	4ff#\	.
.	.	16aa\	.	16aa\	.	.	.	.	.	.	.	.	.	.	.	.	.	.	.	.	.
.	.	16ff#\	.	16ff#\	.	.	.	.	.	.	.	.	.	.	.	.	.	.	.	.	.
.	.	16ff#\JJ	.	16ff#\JJ	.	.	.	.	.	.	.	.	.	.	.	.	.	.	.	.	.
=23	=23	=23	=23	=23	=23	=23	=23	=23	=23	=23	=23	=23	=23	=23	=23	=23	=23	=23	=23	=23	=23
!	!	!LO:TX:a:t=P:problem=mixed beam	!	!	!	!	!	!	!	!	!	!	!	!	!	!	!	!	!	!	!
!	!	!LO:TX:a:i:t=dol:	!	!LO:TX:a:i:t=dolce:	!	!	!	!	!	!	!	!	!	!	!	!	!	!	!	!	!
4G\	.	8gg\L	.	8gg\L	.	4G\	te	.	4B\	te	.	4b\	te	.	4ee\	te	.	4ee\	.	4gg\	.
.	.	8e\	.	8ee\	.	.	.	.	.	.	.	.	.	.	.	.	.	.	.	.	.
!	!LO:DY:a	!	!	!	!	!	!	!	!	!	!	!	!	!	!	!	!	!	!	!	!
4r	p	8d#X\	.	8dd#X\	.	4r	.	.	4r	.	.	4r	.	.	4r	.	.	4r	.	4r	.
.	.	8e\	.	8ee\	.	.	.	.	.	.	.	.	.	.	.	.	.	.	.	.	.
4r	.	8f#\	.	8ff#\	.	4r	.	.	4r	.	.	4r	.	.	4r	.	.	4r	.	4r	.
.	.	8g#X\J	.	8gg#X\J	.	.	.	.	.	.	.	.	.	.	.	.	.	.	.	.	.
=24	=24	=24	=24	=24	=24	=24	=24	=24	=24	=24	=24	=24	=24	=24	=24	=24	=24	=24	=24	=24	=24
!	!	!	!	!	!	!	!	!LO:DY:a	!	!	!LO:DY:a	!	!	!LO:DY:a	!	!	!LO:DY:a	!	!	!	!
4r	.	8a/L	.	8aa\L	.	4r	.	p	4r	.	p	4r	.	p	4r	.	p	2.r	.	2.r	.
.	.	8f#/J	.	8ff#\J	.	.	.	.	.	.	.	.	.	.	.	.	.	.	.	.	.
.	.	8qqe/	.	8qqee/	.	.	.	.	.	.	.	.	.	.	.	.	.	.	.	.	.
4G\	.	2d#X/	.	2dd#X\	.	4G\	a-	.	4B\	A-	.	4b\	A-	.	4dd#X\	A-	.	.	.	.	.
4F#\	.	.	.	.	.	4F#\	-do-	.	4B\	-do-	.	4b\	-do-	.	4dd#\	-do-	.	.	.	.	.
=25	=25	=25	=25	=25	=25	=25	=25	=25	=25	=25	=25	=25	=25	=25	=25	=25	=25	=25	=25	=25	=25
4r	.	8gn/L	.	8ggn\L	.	4r	.	.	4r	.	.	4r	.	.	4r	.	.	2.r	.	2.r	.
.	.	8e/J	.	8ee\J	.	.	.	.	.	.	.	.	.	.	.	.	.	.	.	.	.
.	.	8qqd/	.	8qqdd/	.	.	.	.	.	.	.	.	.	.	.	.	.	.	.	.	.
4F#\	.	2c#/	.	2cc#\	.	4F#\	-ra-	.	4A\	-ra-	.	4a\	-ra-	.	4cc#\	-ra-	.	.	.	.	.
4E\	.	.	.	.	.	4E\	-mus	.	4G\	-mus	.	4a\	-mus	.	4cc#\	-mus	.	.	.	.	.
=26	=26	=26	=26	=26	=26	=26	=26	=26	=26	=26	=26	=26	=26	=26	=26	=26	=26	=26	=26	=26	=26
4r	.	8f#/L	.	8ff#\L	.	4r	.	.	4r	.	.	4r	.	.	4r	.	.	2.r	.	2.r	.
.	.	8d/J	.	8dd\J	.	.	.	.	.	.	.	.	.	.	.	.	.	.	.	.	.
.	.	8qqc#/	.	8qqcc#/	.	.	.	.	.	.	.	.	.	.	.	.	.	.	.	.	.
*	*	*	*	*	*	*	*	*	*	*ij	*	*	*ij	*	*	*ij	*	*	*	*	*
4E\	.	2B/	.	2b\	.	4E\	a-	.	4B\	A-	.	4g#X\	A-	.	4b\	A-	.	.	.	.	.
4D\	.	.	.	.	.	4D\	-do-	.	4B\	-do-	.	4g#\	-do-	.	4b\	-do-	.	.	.	.	.
=27	=27	=27	=27	=27	=27	=27	=27	=27	=27	=27	=27	=27	=27	=27	=27	=27	=27	=27	=27	=27	=27
2.C#/	.	8e/L	.	8ee\L	.	2.C#/	-ra-	.	2.c#\	-ra-	.	2.e\	-ra-	.	2.a\	-ra-	.	2.r	.	2.r	.
.	.	8c#/	.	8cc#\J	.	.	.	.	.	.	.	.	.	.	.	.	.	.	.	.	.
.	.	8B/	.	8b/L	.	.	.	.	.	.	.	.	.	.	.	.	.	.	.	.	.
.	.	8A/	.	8a/	.	.	.	.	.	.	.	.	.	.	.	.	.	.	.	.	.
.	.	8G#X/	.	8g#X/	.	.	.	.	.	.	.	.	.	.	.	.	.	.	.	.	.
.	.	8A/J	.	8a/J	.	.	.	.	.	.	.	.	.	.	.	.	.	.	.	.	.
=28	=28	=28	=28	=28	=28	=28	=28	=28	=28	=28	=28	=28	=28	=28	=28	=28	=28	=28	=28	=28	=28
2.G#X\	.	(8A#X/L	.	8a#X\L	.	2.G#X\	-mus	.	2.d\	-mus	.	2.e\	-mus	.	2.b\	-mus	.	2.r	.	2.r	.
.	.	8B/	.	8b\	.	.	.	.	.	.	.	.	.	.	.	.	.	.	.	.	.
.	.	8c#/	.	8cc#\	.	.	.	.	.	.	.	.	.	.	.	.	.	.	.	.	.
.	.	8d/	.	8dd\	.	.	.	.	.	.	.	.	.	.	.	.	.	.	.	.	.
.	.	8e/	.	8ee\	.	.	.	.	.	.	.	.	.	.	.	.	.	.	.	.	.
.	.	8d/J)	.	8dd\J	.	.	.	.	.	.	.	.	.	.	.	.	.	.	.	.	.
*	*	*	*	*	*	*	*	*	*	*Xij	*	*	*Xij	*	*	*Xij	*	*	*	*	*
=29	=29	=29	=29	=29	=29	=29	=29	=29	=29	=29	=29	=29	=29	=29	=29	=29	=29	=29	=29	=29	=29
!	!	!LO:TX:a:t=P:problem=mixed beam	!	!	!	!	!	!	!	!	!	!	!	!	!	!	!	!	!	!	!
4A\	.	8c#/L	.	8cc#\L	.	4A\	glo-	.	4e\	glo-	.	4e\	glo-	.	4cc#\	glo-	.	2.r	.	2.r	.
.	.	8cc#/	.	8ee\	.	.	.	.	.	.	.	.	.	.	.	.	.	.	.	.	.
4D\	.	8cc#/	.	8ee\	.	4D\	-ri-	.	4f#\	-ri-	.	4b\	-ri-	.	4dd\	-ri-	.	.	.	.	.
.	.	8b/	.	8dd\	.	.	.	.	.	.	.	.	.	.	.	.	.	.	.	.	.
!	!	!LO:SIC:v:s=8a/	!	!	!	!	!	!	!	!	!	!	!	!	!	!	!	!	!	!	!
4D#X\	.	8b/	.	8cc#\	.	4D#X\	-fi-	.	4f#\	-fi-	.	4a\	-fi-	.	4cc#\	-fi-	.	.	.	.	.
!	!	!LO:SIC:v:s=8g#/J	!	!	!	!	!	!	!	!	!	!	!	!	!	!	!	!	!	!	!
.	.	8a/J	.	8b\J	.	.	.	.	.	.	.	.	.	.	.	.	.	.	.	.	.
=30	=30	=30	=30	=30	=30	=30	=30	=30	=30	=30	=30	=30	=30	=30	=30	=30	=30	=30	=30	=30	=30
4E\	.	4a/	.	4cc#\	.	4E\	-ca-	.	4e\	-ca-	.	4a\	-ca-	.	4cc#\	-ca-	.	2.r	.	2.r	.
4EE/	.	4g#X/	.	4b\	.	4E\	-mus	.	4e\	-mus	.	4g#X\	-mus	.	4b\	-mus	.	.	.	.	.
!	!	!	!LO:DY:a	!	!LO:DY:a	!	!	!	!	!	!	!	!	!	!	!	!	!	!	!	!
4r	.	4ee\	f	4ee\	f	4r	.	.	4r	.	.	4r	.	.	4r	.	.	.	.	.	.
=31	=31	=31	=31	=31	=31	=31	=31	=31	=31	=31	=31	=31	=31	=31	=31	=31	=31	=31	=31	=31	=31
*	*	*	*	*	*	*	*	*	*	*	*	*	*	*	*	*	*	*2\right	*	*2\right	*
!	!LO:DY:a	!	!	!	!	!	!	!	!	!	!LO:DY:a	!	!	!LO:DY:a	!	!	!LO:DY:a	!	!	!	!
2G#X\	f	8ee\L	.	8ee\L	.	4G#X\	gra-	.	4d\	gra-	f	4b\	gra-	f	4ee\	gra-	f	2ee\	.	2.ee\	.
.	.	8dd\	.	8dd\	.	.	.	.	.	.	.	.	.	.	.	.	.	.	.	.	.
.	.	8b\	.	8b\	.	4G#\	-ti-	.	4d\	-ti-	.	4b\	-ti-	.	4ee\	-ti-	.	.	.	.	.
.	.	8dd\J	.	8dd\	.	.	.	.	.	.	.	.	.	.	.	.	.	.	.	.	.
4A\	.	8cc#\L	.	8cc#\	.	4A\	-as	.	4c#\	-as	.	4a\	-as	.	4ee\	-as	.	4a/	.	.	.
.	.	8aa\J	.	8aa\J	.	.	.	.	.	.	.	.	.	.	.	.	.	.	.	.	.
=32	=32	=32	=32	=32	=32	=32	=32	=32	=32	=32	=32	=32	=32	=32	=32	=32	=32	=32	=32	=32	=32
4B\	.	8aa\L	.	8aa\L	.	4B\	a-	.	4f#\	a-	.	4a\	a-	.	4.dd\	a-	.	4dd\	.	2gg#X\	.
.	.	8gg#X\	.	8gg#X\	.	.	.	.	.	.	.	.	.	.	.	.	.	.	.	.	.
4E\	.	8bb\	.	8bb\	.	4E\	-gi-	.	4e\	-gi-	.	4g#X\	-gi-	.	.	.	.	4ee\	.	.	.
.	.	8dd\	.	8dd\	.	.	.	.	.	.	.	.	.	.	8dd\	-gi-	.	.	.	.	.
4A\	.	8cc#\	.	8cc#\	.	4A\	-mus	.	4e\	-mus	.	4a\	-mus	.	4cc#\	-mus	.	4a/	.	4aa\	.
.	.	8ee\J	.	8ee\J	.	.	.	.	.	.	.	.	.	.	.	.	.	.	.	.	.
=33	=33	=33	=33	=33	=33	=33	=33	=33	=33	=33	=33	=33	=33	=33	=33	=33	=33	=33	=33	=33	=33
*	*	*	*	*	*	*	*	*	*	*ij	*	*	*ij	*	*	*ij	*	*	*	*	*
2G#X\	.	8ee\L	.	8ee\L	.	4G#X\	a-	.	4d\	a-	.	4b\	a-	.	4ee\	a-	.	2ee\	.	2.ee\	.
.	.	8dd\	.	8dd\	.	.	.	.	.	.	.	.	.	.	.	.	.	.	.	.	.
.	.	8b\	.	8b\	.	4G#\	-gi-	.	4d\	-gi-	.	4b\	-gi-	.	4ee\	-gi-	.	.	.	.	.
.	.	8dd\	.	8dd\	.	.	.	.	.	.	.	.	.	.	.	.	.	.	.	.	.
4A\	.	8cc#\	.	8cc#\	.	4A\	-mus	.	4c#\	-mus	.	4a\	-mus	.	4ee\	-mus	.	4a/	.	.	.
.	.	8aa\J	.	8aa\J	.	.	.	.	.	.	.	.	.	.	.	.	.	.	.	.	.
*	*	*	*	*	*	*	*	*	*	*Xij	*	*	*Xij	*	*	*Xij	*	*	*	*	*
=34	=34	=34	=34	=34	=34	=34	=34	=34	=34	=34	=34	=34	=34	=34	=34	=34	=34	=34	=34	=34	=34
4B\	.	8aa\L	.	8aa\L	.	(4B\	ti-	.	(4f#\	ti-	.	(4a\	ti-	.	2dd\	ti-	.	4dd\	.	2gg#X\	.
.	.	8gg#X\	.	8gg#X\	.	.	.	.	.	.	.	.	.	.	.	.	.	.	.	.	.
4E\	.	8bb\	.	8bb\	.	4E\)	.	.	4e\)	.	.	4g#X\)	.	.	.	.	.	4ee\	.	.	.
.	.	8dd\	.	8dd\	.	.	.	.	.	.	.	.	.	.	.	.	.	.	.	.	.
4A\	.	8cc#\	.	8cc#\	.	4A\	-bi	.	4e\	-bi	.	4a\	-bi	.	4cc#\	-bi	.	4a/	.	4aa\	.
.	.	8ee\J	.	8ee\J	.	.	.	.	.	.	.	.	.	.	.	.	.	.	.	.	.
=35	=35	=35	=35	=35	=35	=35	=35	=35	=35	=35	=35	=35	=35	=35	=35	=35	=35	=35	=35	=35	=35
*	*	*2\right	*	*	*	*	*	*	*	*	*	*	*	*	*	*	*	*	*	*	*
*	*	*tremolo	*	*	*	*	*	*	*	*	*	*	*	*	*	*	*	*	*	*	*
4D\	.	8b\L	.	16ff#\LL	.	2d\	pro-	.	2B\	pro-	.	2g#X\	pro-	.	2ee\	pro-	.	4ee\	.	4ee\	.
.	.	.	.	16gg#X\	.	.	.	.	.	.	.	.	.	.	.	.	.	.	.	.	.
.	.	8b\	.	16aa\	.	.	.	.	.	.	.	.	.	.	.	.	.	.	.	.	.
.	.	.	.	16bb\JJ	.	.	.	.	.	.	.	.	.	.	.	.	.	.	.	.	.
4D\	.	8b\	.	16aa\LL	.	.	.	.	.	.	.	.	.	.	.	.	.	4ee\	.	4ee\	.
.	.	.	.	16gg#\	.	.	.	.	.	.	.	.	.	.	.	.	.	.	.	.	.
.	.	8b\	.	16ff#\	.	.	.	.	.	.	.	.	.	.	.	.	.	.	.	.	.
.	.	.	.	16gg#\JJ	.	.	.	.	.	.	.	.	.	.	.	.	.	.	.	.	.
4D\	.	8b\	.	16aa\LL	.	4d\	-pter	.	4B\	-pter	.	4g#\	-pter	.	4ee\	-pter	.	4ee\	.	4ee\	.
.	.	.	.	16gg#\	.	.	.	.	.	.	.	.	.	.	.	.	.	.	.	.	.
.	.	8b\J	.	16ff#\	.	.	.	.	.	.	.	.	.	.	.	.	.	.	.	.	.
.	.	.	.	16gg#\JJ	.	.	.	.	.	.	.	.	.	.	.	.	.	.	.	.	.
*	*	*Xtremolo	*	*	*	*	*	*	*	*	*	*	*	*	*	*	*	*	*	*	*
=36	=36	=36	=36	=36	=36	=36	=36	=36	=36	=36	=36	=36	=36	=36	=36	=36	=36	=36	=36	=36	=36
!	!	!	!	!	!	!	!	!	!	!	!	!LO:SIC:v:s=4g#\	!	!	!	!	!	!	!	!	!
4D\	.	8b\L	.	16aa\LL	.	4d\	mag-	.	4B\	mag-	.	4g\	mag-	.	4ee\	ma-	.	4ee\	.	4ee\	.
.	.	.	.	16gg#X\	.	.	.	.	.	.	.	.	.	.	.	.	.	.	.	.	.
.	.	16a\L	.	16ff#\	.	.	.	.	.	.	.	.	.	.	.	.	.	.	.	.	.
.	.	16b\JJ	.	16gg#\JJ	.	.	.	.	.	.	.	.	.	.	.	.	.	.	.	.	.
4C#\	.	8cc#\L	.	8aa\L	.	4c#\	-nam	.	4A\	-nam	.	4a\	-nam	.	4ee\	-gnam	.	4a/	.	4ee\	.
.	.	8cc#\	.	8ee\	.	.	.	.	.	.	.	.	.	.	.	.	.	.	.	.	.
4r	.	8a\	.	8cc#\	.	4r	.	.	4r	.	.	4r	.	.	4r	.	.	4r	.	4r	.
.	.	8cc#\J	.	8ee\J	.	.	.	.	.	.	.	.	.	.	.	.	.	.	.	.	.
=37	=37	=37	=37	=37	=37	=37	=37	=37	=37	=37	=37	=37	=37	=37	=37	=37	=37	=37	=37	=37	=37
4D\	.	8dd\L	.	8ff#\L	.	8d\	glo-	.	8f#\	glo-	.	8b\	glo-	.	8dd\	glo-	.	4dd\	.	4ff#\	.
.	.	16cc#\L	.	16ee\L	.	16d\	-ri-	.	16f#\	-ri-	.	16b\	-ri-	.	16dd\	-ri-	.	.	.	.	.
.	.	16b\JJ	.	16dd\JJ	.	16d\	-am	.	16f#\	-am	.	16b\	-am	.	16dd\	-am	.	.	.	.	.
4E\	.	8a/L	.	8cc#\L	.	4e\	tu-	.	2e\	tu-	.	4a\	tu-	.	4cc#\	tu-	.	4ee\	.	4ee\	.
.	.	8cc#/	.	8aa\	.	.	.	.	.	.	.	.	.	.	.	.	.	.	.	.	.
4EE/	.	8g#X/	.	8b\	.	4E\	.	.	.	.	.	4g#X\	.	.	4b\	.	.	4ee\	.	4ee\	.
.	.	8b/J	.	8gg#X\J	.	.	.	.	.	.	.	.	.	.	.	.	.	.	.	.	.
=38	=38	=38	=38	=38	=38	=38	=38	=38	=38	=38	=38	=38	=38	=38	=38	=38	=38	=38	=38	=38	=38
4AA/	.	4cc#\	.	4aa\	.	4A\	-am	.	4e\	-am	.	4a\	-am	.	4cc#\	-am	.	4a/	.	4ee\	.
4A\	.	4c#/	.	4cc#\	.	4r	.	.	4r	.	.	4r	.	.	4r	.	.	4a/	.	4ee\	.
4r	.	4r	.	4r	.	4r	.	.	4r	.	.	4r	.	.	4r	.	.	4r	.	4r	.
=39	=39	=39	=39	=39	=39	=39	=39	=39	=39	=39	=39	=39	=39	=39	=39	=39	=39	=39	=39	=39	=39
!	!LO:DY:a	!	!LO:DY:a	!	!LO:DY:a	!	!	!	!	!	!	!	!	!	!LO:TX:a:Bi:t=Solo&colon;	!	!	!	!	!	!
4r	p	4r	p	4.cc#\	p	2.r	.	.	2.r	.	.	2.r	.	.	4.cc#\	Do-	.	2.r	.	2.r	.
4A\	.	4e/	.	.	.	.	.	.	.	.	.	.	.	.	.	.	.	.	.	.	.
.	.	.	.	8dd\	.	.	.	.	.	.	.	.	.	.	8dd\	-mi-	.	.	.	.	.
4A\	.	4e/	.	4cc#\	.	.	.	.	.	.	.	.	.	.	4cc#\	-ne	.	.	.	.	.
=40	=40	=40	=40	=40	=40	=40	=40	=40	=40	=40	=40	=40	=40	=40	=40	=40	=40	=40	=40	=40	=40
4r	.	4r	.	8cc#\L	.	2.r	.	.	2.r	.	.	2.r	.	.	8cc#\L	De-	.	2.r	.	2.r	.
.	.	.	.	8b\J	.	.	.	.	.	.	.	.	.	.	8b\J	.	.	.	.	.	.
4E\	.	4g#X/	.	4b\	.	.	.	.	.	.	.	.	.	.	4b\	-us	.	.	.	.	.
4E\	.	4g#/	.	4r	.	.	.	.	.	.	.	.	.	.	4r	.	.	.	.	.	.
=41	=41	=41	=41	=41	=41	=41	=41	=41	=41	=41	=41	=41	=41	=41	=41	=41	=41	=41	=41	=41	=41
4r	.	4r	.	4.ee\	.	2.r	.	.	2.r	.	.	2.r	.	.	4.ee\	Rex	.	2.r	.	2.r	.
4G#X\	.	4e/	.	.	.	.	.	.	.	.	.	.	.	.	.	.	.	.	.	.	.
.	.	.	.	8dd\L	.	.	.	.	.	.	.	.	.	.	8dd\	.	.	.	.	.	.
!	!	!	!	!	!	!	!	!	!	!	!	!	!	!	!LO:SIC:v:s=8bn\L	!	!	!	!	!	!
4G#\	.	4e/	.	8b\	.	.	.	.	.	.	.	.	.	.	8a\L	Cae-	.	.	.	.	.
.	.	.	.	8dd\J	.	.	.	.	.	.	.	.	.	.	8dd\J	.	.	.	.	.	.
=42	=42	=42	=42	=42	=42	=42	=42	=42	=42	=42	=42	=42	=42	=42	=42	=42	=42	=42	=42	=42	=42
*	*	*	*	*	*	*	*	*	*	*	*	*	*	*	*Xtuplet	*	*	*	*	*	*
!	!	!	!	!	!	!	!	!	!	!	!	!	!	!	!LO:TX:a:t=P:problem=triola bez numeru i łuku	!	!	!	!	!	!
4r	.	4r	.	8cc#\L	.	2.r	.	.	2.r	.	.	2.r	.	.	12cc#\L	-leſ-	.	2.r	.	2.r	.
.	.	.	.	.	.	.	.	.	.	.	.	.	.	.	12b\	.	.	.	.	.	.
.	.	.	.	16b\L	.	.	.	.	.	.	.	.	.	.	.	.	.	.	.	.	.
.	.	.	.	.	.	.	.	.	.	.	.	.	.	.	12a\J	.	.	.	.	.	.
.	.	.	.	16a\JJ	.	.	.	.	.	.	.	.	.	.	.	.	.	.	.	.	.
4A\	.	4c#/	.	4a/	.	.	.	.	.	.	.	.	.	.	4a\	-tis	.	.	.	.	.
4A\	.	4c#/	.	4r	.	.	.	.	.	.	.	.	.	.	4r	.	.	.	.	.	.
*	*	*	*	*	*	*	*	*	*	*	*	*	*	*	*tuplet	*	*	*	*	*	*
=43	=43	=43	=43	=43	=43	=43	=43	=43	=43	=43	=43	=43	=43	=43	=43	=43	=43	=43	=43	=43	=43
4r	.	4r	.	4.a\	.	2.r	.	.	2.r	.	.	2.r	.	.	(4.a\	De-	.	2.r	.	2.r	.
4C#/	.	4A/	.	.	.	.	.	.	.	.	.	.	.	.	.	.	.	.	.	.	.
.	.	.	.	8cc#\L	.	.	.	.	.	.	.	.	.	.	8cc#\)	.	.	.	.	.	.
4C#/	.	4A/	.	8ee\	.	.	.	.	.	.	.	.	.	.	8dd\L	-us	.	.	.	.	.
.	.	.	.	8gn\J	.	.	.	.	.	.	.	.	.	.	8gn\J	.	.	.	.	.	.
=44	=44	=44	=44	=44	=44	=44	=44	=44	=44	=44	=44	=44	=44	=44	=44	=44	=44	=44	=44	=44	=44
4r	.	4r	.	8g/L	.	2.r	.	.	2.r	.	.	2.r	.	.	8g/L	pa-	.	2.r	.	2.r	.
.	.	.	.	8f#/J	.	.	.	.	.	.	.	.	.	.	8f#/J	.	.	.	.	.	.
4D\	.	4A/	.	4f#/	.	.	.	.	.	.	.	.	.	.	4f#/	-ter	.	.	.	.	.
4D\	.	4A/	.	4r	.	.	.	.	.	.	.	.	.	.	4r	.	.	.	.	.	.
=45	=45	=45	=45	=45	=45	=45	=45	=45	=45	=45	=45	=45	=45	=45	=45	=45	=45	=45	=45	=45	=45
*	*	*	*	*	*	*	*	*	*	*	*	*	*	*	*	*ij	*	*	*	*	*
4r	.	4r	.	4.b\	.	2.r	.	.	2.r	.	.	2.r	.	.	(4.b\	De-	.	2.r	.	2.r	.
4D#X\	.	4B/	.	.	.	.	.	.	.	.	.	.	.	.	.	.	.	.	.	.	.
.	.	.	.	8dd#X\L	.	.	.	.	.	.	.	.	.	.	8dd#X\)	.	.	.	.	.	.
4D#\	.	4B/	.	8ff#\	.	.	.	.	.	.	.	.	.	.	8ff#\L	-us	.	.	.	.	.
.	.	.	.	8a\J	.	.	.	.	.	.	.	.	.	.	8a\J	.	.	.	.	.	.
=46	=46	=46	=46	=46	=46	=46	=46	=46	=46	=46	=46	=46	=46	=46	=46	=46	=46	=46	=46	=46	=46
4r	.	4r	.	8a/L	.	2.r	.	.	2.r	.	.	2.r	.	.	8a\L	pa-	.	2.r	.	2.r	.
.	.	.	.	8g#X/J	.	.	.	.	.	.	.	.	.	.	8g#X\J	.	.	.	.	.	.
4E\	.	4B/	.	4g#/	.	.	.	.	.	.	.	.	.	.	4g#\	-ter	.	.	.	.	.
*	*	*	*	*	*	*	*	*	*	*	*	*	*	*	*	*Xij	*	*	*	*	*
4E\	.	4B/	.	4r	.	.	.	.	.	.	.	.	.	.	4r	.	.	.	.	.	.
=47	=47	=47	=47	=47	=47	=47	=47	=47	=47	=47	=47	=47	=47	=47	=47	=47	=47	=47	=47	=47	=47
4r	.	4r	.	2ee\	.	2.r	.	.	2.r	.	.	2.r	.	.	2ee\	.	.	2.r	.	2.r	.
4G#X\	.	4b\	.	.	.	.	.	.	.	.	.	.	.	.	.	.	.	.	.	.	.
4G#\	.	4b\	.	4ddn\	.	.	.	.	.	.	.	.	.	.	4ddn\	.	.	.	.	.	.
=48	=48	=48	=48	=48	=48	=48	=48	=48	=48	=48	=48	=48	=48	=48	=48	=48	=48	=48	=48	=48	=48
4r	.	4r	.	4.cc#\	.	2.r	.	.	2.r	.	.	2.r	.	.	(4.cc#\	.	.	2.r	.	2.r	.
4A\	.	4e/	.	.	.	.	.	.	.	.	.	.	.	.	.	.	.	.	.	.	.
.	.	.	.	8dd\	.	.	.	.	.	.	.	.	.	.	8dd\)	.	.	.	.	.	.
4A\	.	4cc#\	.	4ee\	.	.	.	.	.	.	.	.	.	.	4ee\	.	.	.	.	.	.
=49	=49	=49	=49	=49	=49	=49	=49	=49	=49	=49	=49	=49	=49	=49	=49	=49	=49	=49	=49	=49	=49
*	*	*	*	*	*	*	*	*	*	*	*	*	*	*	*Xtuplet	*	*	*	*	*	*
!	!	!	!	!	!	!	!	!	!	!	!	!	!	!	!LO:TX:a:t=P:problem=triola bez numeru i łuku	!	!	!	!	!	!
4D\	.	4b/	.	8ff#\L	.	2.r	.	.	2.r	.	.	2.r	.	.	12ff#\L	.	.	2.r	.	2.r	.
.	.	.	.	.	.	.	.	.	.	.	.	.	.	.	12ee\	.	.	.	.	.	.
.	.	.	.	16ee\L	.	.	.	.	.	.	.	.	.	.	.	.	.	.	.	.	.
.	.	.	.	.	.	.	.	.	.	.	.	.	.	.	12dd\J	.	.	.	.	.	.
.	.	.	.	16dd\JJ	.	.	.	.	.	.	.	.	.	.	.	.	.	.	.	.	.
4E\	.	4a/	.	4cc#\	.	.	.	.	.	.	.	.	.	.	4cc#\	.	.	.	.	.	.
4EE/	.	4g#X/	.	4b\	.	.	.	.	.	.	.	.	.	.	4b\	.	.	.	.	.	.
*	*	*	*	*	*	*	*	*	*	*	*	*	*	*	*tuplet	*	*	*	*	*	*
=50	=50	=50	=50	=50	=50	=50	=50	=50	=50	=50	=50	=50	=50	=50	=50	=50	=50	=50	=50	=50	=50
!	!	!	!	!	!	!	!	!	!	!	!	!LO:TX:a:Bi:t=Solo	!	!	!	!	!	!	!	!	!
4AA/	.	4c#/	.	4.a/	.	2.r	.	.	2.r	.	.	4.a\	Do-	.	4a\	.	.	2.r	.	2.r	.
4AA/	.	4c#/	.	.	.	.	.	.	.	.	.	.	.	.	4r	.	.	.	.	.	.
.	.	.	.	8b/	.	.	.	.	.	.	.	8b\	-mi-	.	.	.	.	.	.	.	.
4AA/	.	4c#/	.	4a/	.	.	.	.	.	.	.	4a\	-ne	.	4r	.	.	.	.	.	.
=51	=51	=51	=51	=51	=51	=51	=51	=51	=51	=51	=51	=51	=51	=51	=51	=51	=51	=51	=51	=51	=51
4r	.	4r	.	8a/L	.	2.r	.	.	2.r	.	.	8a\L	fi-	.	2.r	.	.	2.r	.	2.r	.
.	.	.	.	8g#X/J	.	.	.	.	.	.	.	8g#X\J	.	.	.	.	.	.	.	.	.
4BB/	.	4d/	.	4g#/	.	.	.	.	.	.	.	4g#\	-li	.	.	.	.	.	.	.	.
4BB/	.	4d/	.	4r	.	.	.	.	.	.	.	4r	.	.	.	.	.	.	.	.	.
=52	=52	=52	=52	=52	=52	=52	=52	=52	=52	=52	=52	=52	=52	=52	=52	=52	=52	=52	=52	=52	=52
4r	.	4r	.	4.gn/	.	2.r	.	.	2.r	.	.	(4.gn\	u-	.	2.r	.	.	2.r	.	2.r	.
4C#/	.	4e/	.	.	.	.	.	.	.	.	.	.	.	.	.	.	.	.	.	.	.
.	.	.	.	8a/	.	.	.	.	.	.	.	8a\)	.	.	.	.	.	.	.	.	.
4C#/	.	4e/	.	4g/	.	.	.	.	.	.	.	4g\	-ni-	.	.	.	.	.	.	.	.
=53	=53	=53	=53	=53	=53	=53	=53	=53	=53	=53	=53	=53	=53	=53	=53	=53	=53	=53	=53	=53	=53
4r	.	4r	.	8g/L	.	2.r	.	.	2.r	.	.	8g\	-ge-	.	2.r	.	.	2.r	.	2.r	.
.	.	.	.	8f#/J	.	.	.	.	.	.	.	8f#\	-ni-	.	.	.	.	.	.	.	.
4D\	.	4A/	.	4f#/	.	.	.	.	.	.	.	4f#\	-te	.	.	.	.	.	.	.	.
4D\	.	4A/	.	4r	.	.	.	.	.	.	.	4r	.	.	.	.	.	.	.	.	.
=54	=54	=54	=54	=54	=54	=54	=54	=54	=54	=54	=54	=54	=54	=54	=54	=54	=54	=54	=54	=54	=54
4r	.	4r	.	4b/	.	2.r	.	.	2.r	.	.	4b\	Je-	.	2.r	.	.	2.r	.	2.r	.
4G\	.	4B/	.	8a/L	.	.	.	.	.	.	.	8a\L	.	.	.	.	.	.	.	.	.
.	.	.	.	8g/	.	.	.	.	.	.	.	8g\	.	.	.	.	.	.	.	.	.
4G\	.	4B/	.	8f#/	.	.	.	.	.	.	.	8f#\	.	.	.	.	.	.	.	.	.
.	.	.	.	8e/J	.	.	.	.	.	.	.	8e\J	.	.	.	.	.	.	.	.	.
=55	=55	=55	=55	=55	=55	=55	=55	=55	=55	=55	=55	=55	=55	=55	=55	=55	=55	=55	=55	=55	=55
4r	.	4r	.	[2.a/	.	2.r	.	.	2.r	.	.	2.a\	.	.	2.r	.	.	2.r	.	2.r	.
4F#\	.	4d/	.	.	.	.	.	.	.	.	.	.	.	.	.	.	.	.	.	.	.
4F#\	.	4d/	.	.	.	.	.	.	.	.	.	.	.	.	.	.	.	.	.	.	.
=56	=56	=56	=56	=56	=56	=56	=56	=56	=56	=56	=56	=56	=56	=56	=56	=56	=56	=56	=56	=56	=56
4D\	.	4f#/	.	4a/]	.	2.r	.	.	2.r	.	.	4a\	.	.	2.r	.	.	2.r	.	2.r	.
4G\	.	4e/	.	4g/	.	.	.	.	.	.	.	4g\	.	.	.	.	.	.	.	.	.
4G#X\	.	4d/	.	4f#/	.	.	.	.	.	.	.	4f#\	-ſu	.	.	.	.	.	.	.	.
=57	=57	=57	=57	=57	=57	=57	=57	=57	=57	=57	=57	=57	=57	=57	=57	=57	=57	=57	=57	=57	=57
4A\	.	8d/L	.	8f#/L	.	2.r	.	.	2.r	.	.	4f#\	Chri-	.	2.r	.	.	2.r	.	2.r	.
.	.	16c#/L	.	16e/L	.	.	.	.	.	.	.	.	.	.	.	.	.	.	.	.	.
.	.	16d/JJ	.	16f#/JJ	.	.	.	.	.	.	.	.	.	.	.	.	.	.	.	.	.
4AA/	.	8c#/L	.	8e/L	.	.	.	.	.	.	.	4e\	-ſte	.	.	.	.	.	.	.	.
.	.	8a/J	.	8a/J	.	.	.	.	.	.	.	.	.	.	.	.	.	.	.	.	.
!	!	!	!	!	!LO:DY:a	!	!	!	!	!	!	!	!	!	!	!	!	!	!	!	!
4r	.	8cc#\L	.	8cc#\L	f	.	.	.	.	.	.	4r	.	.	.	.	.	.	.	.	.
.	.	8ee\J	.	8ee\J	.	.	.	.	.	.	.	.	.	.	.	.	.	.	.	.	.
=58	=58	=58	=58	=58	=58	=58	=58	=58	=58	=58	=58	=58	=58	=58	=58	=58	=58	=58	=58	=58	=58
!LO:TX:a:t=tutti	!	!	!LO:DY:a	!	!	!	!	!	!	!	!	!	!	!	!	!	!	!	!	!	!
4D\	.	8ff#\L	f	8aa\L	.	4D\	Do-	.	4A\	Do-	.	4f#\	Do-	.	4dd\	Do-	.	4dd\	.	4ff#\	.
.	.	8dd\	.	8ff#\	.	.	.	.	.	.	.	.	.	.	.	.	.	.	.	.	.
4D\	.	8ff#\	.	8aa\	.	4D\	-mi-	.	4A\	-mi-	.	4f#\	-mi-	.	4dd\	-mi-	.	4dd\	.	4ff#\	.
.	.	8dd\J	.	8ff#\J	.	.	.	.	.	.	.	.	.	.	.	.	.	.	.	.	.
!	!	!LO:TX:a:t=P:problem=mixed beam	!	!	!	!	!	!	!	!	!	!	!	!	!	!	!	!	!	!	!
4D\	.	8f#/L	.	8dd\L	.	4D\	-ne	.	4A\	-ne	.	4f#\	-ne	.	4dd\	-ne	.	4dd\	.	4ff#\	.
.	.	8dd/J	.	8ff#\J	.	.	.	.	.	.	.	.	.	.	.	.	.	.	.	.	.
=59	=59	=59	=59	=59	=59	=59	=59	=59	=59	=59	=59	=59	=59	=59	=59	=59	=59	=59	=59	=59	=59
4A\	.	8dd\L	.	8ff#\L	.	4A\	De-	.	4A\	De-	.	4f#\	De-	.	4dd\	De-	.	4dd\	.	4ff#\	.
.	.	16cc#\L	.	16ee\L	.	.	.	.	.	.	.	.	.	.	.	.	.	.	.	.	.
.	.	16dd\JJ	.	16ff#\JJ	.	.	.	.	.	.	.	.	.	.	.	.	.	.	.	.	.
!	!	!LO:TX:a:t=P:problem=mixed beam	!	!	!	!	!	!	!	!	!	!	!	!	!	!	!	!	!	!	!
4AA/	.	8cc#\L	.	8ee\L	.	4AA/	-us	.	4A\	-us	.	4e\	-us	.	4cc#\	-us	.	4a/	.	4ee\	.
.	.	8e\J	.	8a\	.	.	.	.	.	.	.	.	.	.	.	.	.	.	.	.	.
4r	.	8a\L	.	8cc#\	.	4r	.	.	4r	.	.	4r	.	.	4r	.	.	4r	.	4r	.
.	.	8cc#\J	.	8ee\J	.	.	.	.	.	.	.	.	.	.	.	.	.	.	.	.	.
=60	=60	=60	=60	=60	=60	=60	=60	=60	=60	=60	=60	=60	=60	=60	=60	=60	=60	=60	=60	=60	=60
4c#\	.	8ee\L	.	8gg\L	.	2C#/	A-	.	2A\	A-	.	2g\	A-	.	2ee\	A-	.	4ee\	.	4gg\	.
.	.	8cc#\	.	8ee\	.	.	.	.	.	.	.	.	.	.	.	.	.	.	.	.	.
4c#\	.	8ee\	.	8gg\	.	.	.	.	.	.	.	.	.	.	.	.	.	4ee\	.	4gg\	.
.	.	8cc#\	.	8ee\	.	.	.	.	.	.	.	.	.	.	.	.	.	.	.	.	.
4c#\	.	8gg\	.	8aa\	.	4C#/	-gnus	.	4A\	-gnus	.	4g\	-gnus	.	4ee\	-gnus	.	4ee\	.	4gg\	.
.	.	8ee\J	.	8gg\J	.	.	.	.	.	.	.	.	.	.	.	.	.	.	.	.	.
=61	=61	=61	=61	=61	=61	=61	=61	=61	=61	=61	=61	=61	=61	=61	=61	=61	=61	=61	=61	=61	=61
4d\	.	8ee\L	.	8gg\L	.	4D\	De-	.	4A\	De-	.	4g\	De-	.	4ee\	De-	.	4ee\	.	4gg\	.
.	.	16dd\L	.	16ff#\L	.	.	.	.	.	.	.	.	.	.	.	.	.	.	.	.	.
.	.	16ee\JJ	.	16gg\JJ	.	.	.	.	.	.	.	.	.	.	.	.	.	.	.	.	.
4D\	.	8dd\L	.	8ff#\L	.	4D\	-i	.	4A\	-i	.	4f#\	-i	.	4dd\	-i	.	4dd\	.	4ff#\	.
.	.	8a\J	.	8dd\	.	.	.	.	.	.	.	.	.	.	.	.	.	.	.	.	.
4r	.	8dd\L	.	8ff#\	.	4r	.	.	4r	.	.	4r	.	.	4r	.	.	4r	.	4r	.
.	.	8ff#\J	.	8aa\J	.	.	.	.	.	.	.	.	.	.	.	.	.	.	.	.	.
=62	=62	=62	=62	=62	=62	=62	=62	=62	=62	=62	=62	=62	=62	=62	=62	=62	=62	=62	=62	=62	=62
8G\L	.	8b\L	.	16aa\LL	.	4.G\	Do-	.	4.B\	Do-	.	4.g\	Do-	.	4.ee\	Do-	.	2ee\	.	2gg\	.
.	.	.	.	16gg\	.	.	.	.	.	.	.	.	.	.	.	.	.	.	.	.	.
8G\	.	8b\	.	16ff#\	.	.	.	.	.	.	.	.	.	.	.	.	.	.	.	.	.
.	.	.	.	16ee\JJ	.	.	.	.	.	.	.	.	.	.	.	.	.	.	.	.	.
8G\	.	8b\	.	16dd#X\LL	.	.	.	.	.	.	.	.	.	.	.	.	.	.	.	.	.
.	.	.	.	16ee\	.	.	.	.	.	.	.	.	.	.	.	.	.	.	.	.	.
8G\J	.	8b\	.	16dd#\	.	8G\	-mi-	.	8B\	-mi-	.	8g\	-mi-	.	8ee\	-mi-	.	.	.	.	.
.	.	.	.	16ee\JJ	.	.	.	.	.	.	.	.	.	.	.	.	.	.	.	.	.
8G#X\L	.	8b\	.	16gg\LL	.	4G#X\	-ne	.	4B\	-ne	.	4f#\	-ne	.	4dd\	-ne	.	4dd\	.	4ff#\	.
.	.	.	.	16ff#\	.	.	.	.	.	.	.	.	.	.	.	.	.	.	.	.	.
8G#\J	.	8b\J	.	16ee\	.	.	.	.	.	.	.	.	.	.	.	.	.	.	.	.	.
.	.	.	.	16ddn\JJ	.	.	.	.	.	.	.	.	.	.	.	.	.	.	.	.	.
=63	=63	=63	=63	=63	=63	=63	=63	=63	=63	=63	=63	=63	=63	=63	=63	=63	=63	=63	=63	=63	=63
8A\L	.	8e/L	.	16dd\LL	.	(4A\	De-	.	2A\	De-	.	2e\	De-	.	2cc#\	De-	.	2a/	.	2ee\	.
.	.	.	.	16cc#\	.	.	.	.	.	.	.	.	.	.	.	.	.	.	.	.	.
8A\	.	8e/	.	16b\	.	.	.	.	.	.	.	.	.	.	.	.	.	.	.	.	.
.	.	.	.	16cc#\JJ	.	.	.	.	.	.	.	.	.	.	.	.	.	.	.	.	.
8Gn\	.	8e/	.	16a\LL	.	4Gn\)	.	.	.	.	.	.	.	.	.	.	.	.	.	.	.
.	.	.	.	16cc#\	.	.	.	.	.	.	.	.	.	.	.	.	.	.	.	.	.
8G\	.	8e/	.	16ee\	.	.	.	.	.	.	.	.	.	.	.	.	.	.	.	.	.
.	.	.	.	16cc#\JJ	.	.	.	.	.	.	.	.	.	.	.	.	.	.	.	.	.
8F#\	.	8a/	.	16a\LL	.	4F#\	-us	.	4A\	-us	.	4f#\	-us	.	4dd\	-us	.	4dd\	.	4ff#\	.
.	.	.	.	16dd\	.	.	.	.	.	.	.	.	.	.	.	.	.	.	.	.	.
8F#\J	.	8a/J	.	16ff#\	.	.	.	.	.	.	.	.	.	.	.	.	.	.	.	.	.
.	.	.	.	16aa\JJ	.	.	.	.	.	.	.	.	.	.	.	.	.	.	.	.	.
=64	=64	=64	=64	=64	=64	=64	=64	=64	=64	=64	=64	=64	=64	=64	=64	=64	=64	=64	=64	=64	=64
8G\L	.	8b\L	.	16aa\LL	.	2G\	A-	.	2B\	A-	.	2g\	A-	.	2ee\	A-	.	2ee\	.	2gg\	.
.	.	.	.	16gg\	.	.	.	.	.	.	.	.	.	.	.	.	.	.	.	.	.
8G\	.	8b\	.	16ff#\	.	.	.	.	.	.	.	.	.	.	.	.	.	.	.	.	.
.	.	.	.	16ee\JJ	.	.	.	.	.	.	.	.	.	.	.	.	.	.	.	.	.
8G\	.	8b\	.	16dd#X\LL	.	.	.	.	.	.	.	.	.	.	.	.	.	.	.	.	.
.	.	.	.	16ee\	.	.	.	.	.	.	.	.	.	.	.	.	.	.	.	.	.
8G\	.	8b\	.	16dd#\	.	.	.	.	.	.	.	.	.	.	.	.	.	.	.	.	.
.	.	.	.	16ee\JJ	.	.	.	.	.	.	.	.	.	.	.	.	.	.	.	.	.
8G#X\	.	8b\	.	16gg\LL	.	4G#X\	-gnus	.	4B\	-gnus	.	4f#\	-gnus	.	4dd\	-gnus	.	4dd\	.	4ff#\	.
.	.	.	.	16ff#\	.	.	.	.	.	.	.	.	.	.	.	.	.	.	.	.	.
8G#\J	.	8b\J	.	16ee\	.	.	.	.	.	.	.	.	.	.	.	.	.	.	.	.	.
.	.	.	.	16ddn\JJ	.	.	.	.	.	.	.	.	.	.	.	.	.	.	.	.	.
=65	=65	=65	=65	=65	=65	=65	=65	=65	=65	=65	=65	=65	=65	=65	=65	=65	=65	=65	=65	=65	=65
8A\L	.	8e/L	.	16dd\LL	.	(4A\	De-	.	2A\	De-	.	2e\	De-	.	2cc#\	De-	.	2a/	.	2ee\	.
.	.	.	.	16cc#\	.	.	.	.	.	.	.	.	.	.	.	.	.	.	.	.	.
8A\	.	8e/	.	16b\	.	.	.	.	.	.	.	.	.	.	.	.	.	.	.	.	.
.	.	.	.	16cc#\JJ	.	.	.	.	.	.	.	.	.	.	.	.	.	.	.	.	.
8Gn\	.	8e/	.	16a\LL	.	4Gn\)	.	.	.	.	.	.	.	.	.	.	.	.	.	.	.
.	.	.	.	16cc#\	.	.	.	.	.	.	.	.	.	.	.	.	.	.	.	.	.
8G\	.	8e/	.	16ee\	.	.	.	.	.	.	.	.	.	.	.	.	.	.	.	.	.
.	.	.	.	16cc#\JJ	.	.	.	.	.	.	.	.	.	.	.	.	.	.	.	.	.
8F#\	.	8a/	.	16a\LL	.	4F#\	-i	.	4A\	-i	.	4f#\	-i	.	4dd\	-i	.	4dd\	.	4ff#\	.
.	.	.	.	16dd\	.	.	.	.	.	.	.	.	.	.	.	.	.	.	.	.	.
8F#\J	.	8a/J	.	16ff#\	.	.	.	.	.	.	.	.	.	.	.	.	.	.	.	.	.
.	.	.	.	16aa\JJ	.	.	.	.	.	.	.	.	.	.	.	.	.	.	.	.	.
=66	=66	=66	=66	=66	=66	=66	=66	=66	=66	=66	=66	=66	=66	=66	=66	=66	=66	=66	=66	=66	=66
8G\L	.	8b\L	.	16aa\LL	.	4.G\	fi-	.	4.B\	fi-	.	4.g\	fi-	.	4.ee\	fi-	.	2ee\	.	2gg\	.
.	.	.	.	16gg\	.	.	.	.	.	.	.	.	.	.	.	.	.	.	.	.	.
8G\	.	8b\	.	16ff#\	.	.	.	.	.	.	.	.	.	.	.	.	.	.	.	.	.
.	.	.	.	16ee\JJ	.	.	.	.	.	.	.	.	.	.	.	.	.	.	.	.	.
8G\	.	8b\	.	16dd#X\LL	.	.	.	.	.	.	.	.	.	.	.	.	.	.	.	.	.
.	.	.	.	16ee\	.	.	.	.	.	.	.	.	.	.	.	.	.	.	.	.	.
8G\	.	8b\	.	16dd#\	.	8G\	-li-	.	8B\	-li-	.	8g\	-li-	.	8ee\	-li-	.	.	.	.	.
.	.	.	.	16ee\JJ	.	.	.	.	.	.	.	.	.	.	.	.	.	.	.	.	.
8G#X\	.	8b\	.	16gg\LL	.	4G#X\	-us	.	4B\	-us	.	4f#\	-us	.	4dd\	-us	.	4dd\	.	4ff#\	.
.	.	.	.	16ff#\	.	.	.	.	.	.	.	.	.	.	.	.	.	.	.	.	.
8G#\J	.	8b\J	.	16ee\	.	.	.	.	.	.	.	.	.	.	.	.	.	.	.	.	.
.	.	.	.	16ddn\JJ	.	.	.	.	.	.	.	.	.	.	.	.	.	.	.	.	.
=67	=67	=67	=67	=67	=67	=67	=67	=67	=67	=67	=67	=67	=67	=67	=67	=67	=67	=67	=67	=67	=67
*	*	*	*	*	*	*	*ij	*	*	*ij	*	*	*ij	*	*	*ij	*	*	*	*	*
8A\L	.	8e/L	.	16dd\LL	.	4.A\	fi-	.	4.A\	fi-	.	4.e\	fi-	.	4.cc#\	fi-	.	2a/	.	2ee\	.
.	.	.	.	16cc#\	.	.	.	.	.	.	.	.	.	.	.	.	.	.	.	.	.
8A\	.	8e/J	.	16b\	.	.	.	.	.	.	.	.	.	.	.	.	.	.	.	.	.
.	.	.	.	16cc#\JJ	.	.	.	.	.	.	.	.	.	.	.	.	.	.	.	.	.
8A\	.	8cc#\L	.	16a\LL	.	.	.	.	.	.	.	.	.	.	.	.	.	.	.	.	.
.	.	.	.	16cc#\	.	.	.	.	.	.	.	.	.	.	.	.	.	.	.	.	.
8A\	.	8cc#\	.	16ee\	.	8A\	-li-	.	8A\	-li-	.	8e\	-li-	.	8cc#\	-li-	.	.	.	.	.
.	.	.	.	16gg\JJ	.	.	.	.	.	.	.	.	.	.	.	.	.	.	.	.	.
8B\	.	8dd\	.	16gg\LL	.	4B\	-us	.	4B\	-us	.	4f#\	-us	.	4dd\	-us	.	4dd\	.	4ff#\	.
.	.	.	.	16ff#\	.	.	.	.	.	.	.	.	.	.	.	.	.	.	.	.	.
8B\J	.	8dd\J	.	16ee\	.	.	.	.	.	.	.	.	.	.	.	.	.	.	.	.	.
.	.	.	.	16ff#\JJ	.	.	.	.	.	.	.	.	.	.	.	.	.	.	.	.	.
*	*	*	*	*	*	*	*Xij	*	*	*Xij	*	*	*Xij	*	*	*Xij	*	*	*	*	*
=68	=68	=68	=68	=68	=68	=68	=68	=68	=68	=68	=68	=68	=68	=68	=68	=68	=68	=68	=68	=68	=68
!LO:TX:a:t=P:problem=mixed beam	!	!	!	!	!	!	!	!	!	!	!	!	!	!	!	!	!	!	!	!	!
8G\L	.	8b/L	.	8gg\L	.	4G\	pat-	.	4B\	pa-	.	4g\	pat-	.	4ee\	pat-	.	4ee\	.	4gg\	.
8G\	.	16a/L	.	16ff#\L	.	.	.	.	.	.	.	.	.	.	.	.	.	.	.	.	.
.	.	16g/JJ	.	16ee\JJ	.	.	.	.	.	.	.	.	.	.	.	.	.	.	.	.	.
8A\	.	8f#/L	.	8dd\L	.	4A\	.	.	2A\	.	.	4f#\	.	.	4dd\	.	.	4dd\	.	4ff#\	.
8A\	.	8dd/	.	8ff#\	.	.	.	.	.	.	.	.	.	.	.	.	.	.	.	.	.
8AA\	.	8e/	.	8cc#\	.	4AA/	.	.	.	.	.	4e\	.	.	4cc#\	.	.	4a/	.	4ee\	.
!	!	!	!	!LO:TX:b:t=Verte	!	!	!	!	!	!	!	!	!	!	!	!	!	!	!	!	!
8AA\J	.	8cc#/J	.	8ee\J	.	.	.	.	.	.	.	.	.	.	.	.	.	.	.	.	.
=69	=69	=69	=69	=69	=69	=69	=69	=69	=69	=69	=69	=69	=69	=69	=69	=69	=69	=69	=69	=69	=69
4D\	.	4dd\	.	4ff#\	.	4D\	-tris	.	4A\	-tris	.	4f#\	-ris	.	4dd\	-ris	.	4f#/	.	4dd\	.
4DD/	.	4f#/	.	4dd\	.	4r	.	.	4r	.	.	4r	.	.	4r	.	.	4f#/	.	4dd\	.
4F#\	.	4a#X/	.	4ff#\	.	4F#\	qui	.	4f#\	qui	.	4a#X\	qui	.	4cc#\	qui	.	4r	.	4r	.
=70	=70	=70	=70	=70	=70	=70	=70	=70	=70	=70	=70	=70	=70	=70	=70	=70	=70	=70	=70	=70	=70
4B\	.	8b\L	.	8dd\L	.	4B\	tol-	.	4f#\	tol-	.	4b\	tol-	.	4dd\	tol-	.	2.r	.	2.r	.
.	.	8b\	.	8b\	.	.	.	.	.	.	.	.	.	.	.	.	.	.	.	.	.
4B\	.	8dd\	.	8dd\	.	4B\	-lis	.	4f#\	-lis	.	4b\	-lis	.	4dd\	-lis	.	.	.	.	.
.	.	8ff#\	.	8ff#\	.	.	.	.	.	.	.	.	.	.	.	.	.	.	.	.	.
8r	.	8bb\	.	8bb\	.	8r	.	.	8r	.	.	8r	.	.	8r	.	.	.	.	.	.
*	*	*	*	*	*	*	*ij	*	*	*ij	*	*	*ij	*	*	*ij	*	*	*	*	*
8B\	.	8ff#\J	.	8ff#\J	.	8B\	qui	.	8f#\	qui	.	8b\	qui	.	8dd\	qui	.	.	.	.	.
=71	=71	=71	=71	=71	=71	=71	=71	=71	=71	=71	=71	=71	=71	=71	=71	=71	=71	=71	=71	=71	=71
4An\	.	8dd\L	.	8dd\L	.	4An\	tol-	.	4f#\	tol-	.	4b\	tol-	.	4dd\	tol-	.	2.r	.	2.r	.
.	.	8b\	.	8b\	.	.	.	.	.	.	.	.	.	.	.	.	.	.	.	.	.
4A\	.	8dd\	.	8dd\	.	4A\	-lis	.	4f#\	-lis	.	4b\	-lis	.	4dd\	-lis	.	.	.	.	.
.	.	8ff#\	.	8ff#\	.	.	.	.	.	.	.	.	.	.	.	.	.	.	.	.	.
*	*	*	*	*	*	*	*Xij	*	*	*Xij	*	*	*Xij	*	*	*Xij	*	*	*	*	*
8r	.	8bb\	.	8bb\	.	8r	.	.	8r	.	.	8r	.	.	8r	.	.	.	.	.	.
8A\	.	8ff#\J	.	8ff#\J	.	8A\	pec-	.	8f#\	pec-	.	8b\	pec-	.	8dd\	pec-	.	.	.	.	.
=72	=72	=72	=72	=72	=72	=72	=72	=72	=72	=72	=72	=72	=72	=72	=72	=72	=72	=72	=72	=72	=72
4G\	.	8dd\L	.	8dd\L	.	2G\	-ca-	.	2g\	-ca-	.	2b\	-ca-	.	2dd\	-ca-	.	2.r	.	2.r	.
.	.	8b\	.	8b\	.	.	.	.	.	.	.	.	.	.	.	.	.	.	.	.	.
4G\	.	8dd\	.	8dd\	.	.	.	.	.	.	.	.	.	.	.	.	.	.	.	.	.
.	.	8ff#\	.	8ff#\	.	.	.	.	.	.	.	.	.	.	.	.	.	.	.	.	.
4G\	.	8dd\	.	8bb\	.	4G\	-ta	.	4g\	-ta	.	4b\	-ta	.	4dd\	-ta	.	.	.	.	.
.	.	8b\J	.	8dd\J	.	.	.	.	.	.	.	.	.	.	.	.	.	.	.	.	.
=73	=73	=73	=73	=73	=73	=73	=73	=73	=73	=73	=73	=73	=73	=73	=73	=73	=73	=73	=73	=73	=73
4F#\	.	4b/	.	4dd\	.	4F#\	mun-	.	4f#\	mun-	.	4b\	mun-	.	4dd\	mun-	.	2.r	.	2.r	.
4FF#/	.	4a#X/	.	4cc#\	.	4F#\	-di	.	4f#\	-di	.	4a#X\	-di	.	4cc#\	-di	.	.	.	.	.
4r	.	4ff#\	.	4ff#\	.	4r	.	.	4r	.	.	4r	.	.	4r	.	.	.	.	.	.
=74	=74	=74	=74	=74	=74	=74	=74	=74	=74	=74	=74	=74	=74	=74	=74	=74	=74	=74	=74	=74	=74
4F#\	.	8ee\L	.	8ee\L	.	2F#\	mi-	.	2B\	ſuſ-	.	2an\	ſuſ-	.	2dd#X\	mi-	.	2.r	.	2.r	.
.	.	8dd#X\J	.	8dd#X\J	.	.	.	.	.	.	.	.	.	.	.	.	.	.	.	.	.
4F#\	.	4.dd#\	.	4.dd#\	.	.	.	.	.	.	.	.	.	.	.	.	.	.	.	.	.
4F#\	.	.	.	.	.	4F#\	-ſe-	.	4B\	-ci-	.	4a\	-ci-	.	4dd#\	-ſe-	.	.	.	.	.
.	.	8ff#\	.	8ff#\	.	.	.	.	.	.	.	.	.	.	.	.	.	.	.	.	.
=75	=75	=75	=75	=75	=75	=75	=75	=75	=75	=75	=75	=75	=75	=75	=75	=75	=75	=75	=75	=75	=75
4G\	.	8ff#\L	.	8ff#\L	.	4G\	-re-	.	2B\	-pe	.	2b\	-pe	.	4ee\	-re-	.	2.r	.	2.r	.
.	.	8ee\	.	8ee\	.	.	.	.	.	.	.	.	.	.	.	.	.	.	.	.	.
4G\	.	8ee\	.	8ee\	.	4G\	-re	.	.	.	.	.	.	.	4ee\	-re	.	.	.	.	.
.	.	8gg\	.	8gg\	.	.	.	.	.	.	.	.	.	.	.	.	.	.	.	.	.
4r	.	8ff#\	.	8ff#\	.	4r	.	.	4r	.	.	4r	.	.	4r	.	.	.	.	.	.
.	.	8ee\J	.	8ee\J	.	.	.	.	.	.	.	.	.	.	.	.	.	.	.	.	.
=76	=76	=76	=76	=76	=76	=76	=76	=76	=76	=76	=76	=76	=76	=76	=76	=76	=76	=76	=76	=76	=76
*	*	*	*	*	*	*	*ij	*	*	*ij	*	*	*ij	*	*	*ij	*	*	*	*	*
4E\	.	8ddn\L	.	8ddn\L	.	2E\	mi-	.	2An\	ſuſ-	.	2g\	{ſuſ-	.	2cc#\	mi-	.	2.r	.	2.r	.
.	.	8cc#\J	.	8cc#\J	.	.	.	.	.	.	.	.	.	.	.	.	.	.	.	.	.
4E\	.	4.cc#\	.	4.cc#\	.	.	.	.	.	.	.	.	.	.	.	.	.	.	.	.	.
4E\	.	.	.	.	.	4E\	-ſe-	.	4A\	-ci-	.	4g\	-ci-	.	4cc#\	-ſe-	.	.	.	.	.
.	.	8ee\	.	8ee\	.	.	.	.	.	.	.	.	.	.	.	.	.	.	.	.	.
=77	=77	=77	=77	=77	=77	=77	=77	=77	=77	=77	=77	=77	=77	=77	=77	=77	=77	=77	=77	=77	=77
4F#\	.	8ee\L	.	8ee\L	.	4F#\	-re-	.	2A\	-pe	.	2a\	-pe	.	4ddn\	-re-	.	2.r	.	2.r	.
.	.	8dd\	.	8dd\	.	.	.	.	.	.	.	.	.	.	.	.	.	.	.	.	.
4F#\	.	8dd\	.	8dd\	.	4F#\	-re	.	.	.	.	.	.	.	4dd\	-re	.	.	.	.	.
.	.	8ff#\	.	8ff#\	.	.	.	.	.	.	.	.	.	.	.	.	.	.	.	.	.
*	*	*	*	*	*	*	*	*	*	*Xij	*	*	*	*	*	*Xij	*	*	*	*	*
4r	.	8ee\	.	8ee\	.	4r	.	.	4r	.	.	4r	.	.	4r	.	.	.	.	.	.
.	.	8dd\J	.	8dd\J	.	.	.	.	.	.	.	.	.	.	.	.	.	.	.	.	.
=78	=78	=78	=78	=78	=78	=78	=78	=78	=78	=78	=78	=78	=78	=78	=78	=78	=78	=78	=78	=78	=78
4D\	.	8cc#\L	.	8cc#\L	.	2D\	mi-	.	4.d\	ſuſ-	.	4.f#\	ſuſ-	.	2b\	mi-	.	2.r	.	2.r	.
.	.	8b\J	.	8b\J	.	.	.	.	.	.	.	.	.	.	.	.	.	.	.	.	.
4D\	.	4.b\	.	4.b\	.	.	.	.	.	.	.	.	.	.	.	.	.	.	.	.	.
.	.	.	.	.	.	.	.	.	8d\	-ci-	.	8f#\	-ci-	.	.	.	.	.	.	.	.
4D\	.	.	.	.	.	4D\	-ſe-	.	4d\	-pe	.	4f#\	-pe	.	4b\	-ſe-	.	.	.	.	.
.	.	8dd\	.	8dd\	.	.	.	.	.	.	.	.	.	.	.	.	.	.	.	.	.
*	*	*	*	*	*	*	*	*	*	*	*	*	*Xij	*	*	*	*	*	*	*	*
=79	=79	=79	=79	=79	=79	=79	=79	=79	=79	=79	=79	=79	=79	=79	=79	=79	=79	=79	=79	=79	=79
4D#X\	.	8cc#\L	.	8cc#\L	.	2D#X\	-re-	.	2B\	de-	.	2f#\	de-	.	2b\	-re-	.	2.r	.	2.r	.
.	.	8b\J	.	8b\J	.	.	.	.	.	.	.	.	.	.	.	.	.	.	.	.	.
4D#\	.	4.b\	.	4.b\	.	.	.	.	.	.	.	.	.	.	.	.	.	.	.	.	.
4D#\	.	.	.	.	.	4D#\	-re	.	4B\	-pre-	.	4f#\	-pre-	.	4b\	-re	.	.	.	.	.
.	.	8b\	.	16dd\LL	.	.	.	.	.	.	.	.	.	.	.	.	.	.	.	.	.
.	.	.	.	16ee\JJ	.	.	.	.	.	.	.	.	.	.	.	.	.	.	.	.	.
=80	=80	=80	=80	=80	=80	=80	=80	=80	=80	=80	=80	=80	=80	=80	=80	=80	=80	=80	=80	=80	=80
*	*	*	*	*	*	*	*	*	*	*	*	*	*	*	*	*ij	*	*	*	*	*
4E\	.	4g/	.	8ff#\L	.	8E\	mi-	.	8G/	-ca-	.	8e\	-ca-	.	8cc#\	mi-	.	2.r	.	2.r	.
.	.	.	.	8ee\	.	8E\	-ſe-	.	8G/	-ti-	.	8e\	-ti-	.	8cc#\	-ſe-	.	.	.	.	.
4E\	.	4g/	.	8dd\	.	4E\	-re-	.	4G/	-o-	.	4e\	-o-	.	4cc#\	-re-	.	.	.	.	.
.	.	.	.	8cc#\	.	.	.	.	.	.	.	.	.	.	.	.	.	.	.	.	.
4E#X\	.	4g/	.	8cc#\	.	4E#X\	-re	.	4G/	-nem	.	4d\	-nem	.	4b\	-re	.	.	.	.	.
.	.	.	.	8b\J	.	.	.	.	.	.	.	.	.	.	.	.	.	.	.	.	.
*	*	*	*	*	*	*	*	*	*	*	*	*	*	*	*	*Xij	*	*	*	*	*
*	*	*	*	*	*	*	*Xij	*	*	*	*	*	*	*	*	*	*	*	*	*	*
=81	=81	=81	=81	=81	=81	=81	=81	=81	=81	=81	=81	=81	=81	=81	=81	=81	=81	=81	=81	=81	=81
4F#\	.	4d/	.	4b\	.	4F#\	no-	.	4F#/	no-	.	4d\	no-	.	4b\	no-	.	2.r	.	2.r	.
4FF#/	.	4c#/	.	4a#X\	.	4F#\	-bis	.	4F#/	-ſtram	.	4c#\	-ſtram	.	4a#X\	-bis	.	.	.	.	.
4r	.	4a#X/	.	4cc#\	.	4r	.	.	4r	.	.	4r	.	.	4r	.	.	.	.	.	.
=82	=82	=82	=82	=82	=82	=82	=82	=82	=82	=82	=82	=82	=82	=82	=82	=82	=82	=82	=82	=82	=82
2.Dn\	.	4b\	.	8dd\L	.	2Dn\	mi-	.	2B\	mi-	.	2f#\	mi-	.	2b\	mi-	.	2.f#/	.	2.ff#\	.
.	.	.	.	8ff#\	.	.	.	.	.	.	.	.	.	.	.	.	.	.	.	.	.
.	.	4b\	.	8bb\	.	.	.	.	.	.	.	.	.	.	.	.	.	.	.	.	.
.	.	.	.	8aa\	.	.	.	.	.	.	.	.	.	.	.	.	.	.	.	.	.
.	.	4b\	.	8gg\	.	4D\	-ſe-	.	4B\	-ſe-	.	4f#\	-ſe-	.	4b\	-ſe-	.	.	.	.	.
.	.	.	.	8ff#\J	.	.	.	.	.	.	.	.	.	.	.	.	.	.	.	.	.
=83	=83	=83	=83	=83	=83	=83	=83	=83	=83	=83	=83	=83	=83	=83	=83	=83	=83	=83	=83	=83	=83
2.En\	.	4cc#\	.	8gg\L	.	2En\	-re-	.	2G/	-re-	.	2g\	-re-	.	2cc#\	-re-	.	2.ee\	.	2.gg\	.
.	.	.	.	8ff#\	.	.	.	.	.	.	.	.	.	.	.	.	.	.	.	.	.
.	.	4cc#\	.	8ee\	.	.	.	.	.	.	.	.	.	.	.	.	.	.	.	.	.
.	.	.	.	8dd\	.	.	.	.	.	.	.	.	.	.	.	.	.	.	.	.	.
.	.	4cc#\	.	8cc#\	.	4E\	-re	.	4G/	-re	.	4g\	-re	.	4cc#\	-re	.	.	.	.	.
.	.	.	.	8ee\J	.	.	.	.	.	.	.	.	.	.	.	.	.	.	.	.	.
=84	=84	=84	=84	=84	=84	=84	=84	=84	=84	=84	=84	=84	=84	=84	=84	=84	=84	=84	=84	=84	=84
!	!	!LO:TX:a:t=P:problem=mixed beam	!	!	!	!	!	!	!	!	!	!	!	!	!	!	!	!	!	!	!
2F#\	.	8b\L	.	8dd\L	.	2.F#\	no-	.	2.F#/	no-	.	2b\	no-	.	2dd\	no-	.	4ff#\	.	2.ff#\	.
.	.	8dd\	.	8bb\	.	.	.	.	.	.	.	.	.	.	.	.	.	.	.	.	.
.	.	8d\	.	8b\	.	.	.	.	.	.	.	.	.	.	.	.	.	4f#/	.	.	.
.	.	8dd\J	.	8bb\	.	.	.	.	.	.	.	.	.	.	.	.	.	.	.	.	.
4FF#/	.	8a#X\L	.	8cc#\	.	.	.	.	.	.	.	4a#X\	.	.	4cc#\	.	.	4f#/	.	.	.
.	.	8cc#\J	.	8aa#X\J	.	.	.	.	.	.	.	.	.	.	.	.	.	.	.	.	.
=85	=85	=85	=85	=85	=85	=85	=85	=85	=85	=85	=85	=85	=85	=85	=85	=85	=85	=85	=85	=85	=85
!	!	!LO:TX:a:i:t=dolce:	!	!LO:TX:a:i:t=dol:	!	!	!	!	!	!	!	!	!	!	!	!	!	!	!	!	!
4BB/	.	4.b/	.	4.bb\	.	4BB/	-bis	.	4F#/	-bis	.	4b\	-bis	.	4dd\	-bis	.	4f#/	.	4ff#\	.
!	!LO:DY:a	!	!	!	!	!	!	!	!	!	!	!	!	!	!	!	!	!	!	!	!
2D#X\	p	.	.	.	.	4r	.	.	2r	.	.	4r	.	.	4r	.	.	4r	.	4r	.
.	.	8an/L	.	(8aan\L	.	.	.	.	.	.	.	.	.	.	.	.	.	.	.	.	.
.	.	8g/	.	8gg\	.	4r	.	.	.	.	.	4r	.	.	4r	.	.	4r	.	4r	.
.	.	8f#/J	.	8ff#\J)	.	.	.	.	.	.	.	.	.	.	.	.	.	.	.	.	.
=86	=86	=86	=86	=86	=86	=86	=86	=86	=86	=86	=86	=86	=86	=86	=86	=86	=86	=86	=86	=86	=86
2.E\	.	(4g/	.	4gg\	.	2.r	.	.	2.r	.	.	2.r	.	.	2.r	.	.	2.r	.	2.r	.
.	.	4a/	.	4aa\	.	.	.	.	.	.	.	.	.	.	.	.	.	.	.	.	.
.	.	4b/)	.	4bb\	.	.	.	.	.	.	.	.	.	.	.	.	.	.	.	.	.
=87	=87	=87	=87	=87	=87	=87	=87	=87	=87	=87	=87	=87	=87	=87	=87	=87	=87	=87	=87	=87	=87
2.C#/	.	4.a/	.	4.aa\	.	2.r	.	.	2.r	.	.	2.r	.	.	2.r	.	.	2.r	.	2.r	.
.	.	(8g/L	.	(8gg\L	.	.	.	.	.	.	.	.	.	.	.	.	.	.	.	.	.
.	.	8f#/	.	8ff#\	.	.	.	.	.	.	.	.	.	.	.	.	.	.	.	.	.
.	.	8e/J)	.	8ee\J)	.	.	.	.	.	.	.	.	.	.	.	.	.	.	.	.	.
=88	=88	=88	=88	=88	=88	=88	=88	=88	=88	=88	=88	=88	=88	=88	=88	=88	=88	=88	=88	=88	=88
2.Dn\	.	(4f#/	.	4ff#\	.	2.r	.	.	2.r	.	.	2.r	.	.	2.r	.	.	2.r	.	2.r	.
.	.	4g/	.	4gg\	.	.	.	.	.	.	.	.	.	.	.	.	.	.	.	.	.
.	.	4a/)	.	4aa\	.	.	.	.	.	.	.	.	.	.	.	.	.	.	.	.	.
=89	=89	=89	=89	=89	=89	=89	=89	=89	=89	=89	=89	=89	=89	=89	=89	=89	=89	=89	=89	=89	=89
[2.G\	.	(8a/L	.	(8aa\L	.	2.r	.	.	2.r	.	.	2.r	.	.	2.r	.	.	2.r	.	2.r	.
.	.	8g/	.	8gg\	.	.	.	.	.	.	.	.	.	.	.	.	.	.	.	.	.
.	.	8b/	.	8bb\	.	.	.	.	.	.	.	.	.	.	.	.	.	.	.	.	.
.	.	8a/	.	8aa\	.	.	.	.	.	.	.	.	.	.	.	.	.	.	.	.	.
.	.	8g/	.	8gg\	.	.	.	.	.	.	.	.	.	.	.	.	.	.	.	.	.
.	.	8f#/J)	.	8ff#\J)	.	.	.	.	.	.	.	.	.	.	.	.	.	.	.	.	.
=90	=90	=90	=90	=90	=90	=90	=90	=90	=90	=90	=90	=90	=90	=90	=90	=90	=90	=90	=90	=90	=90
2.G\_	.	(8f#/L	.	(8ff#\L	.	2.r	.	.	2.r	.	.	2.r	.	.	2.r	.	.	2.r	.	2.r	.
.	.	8e/	.	8ee\	.	.	.	.	.	.	.	.	.	.	.	.	.	.	.	.	.
.	.	8d#X/	.	8dd#X\	.	.	.	.	.	.	.	.	.	.	.	.	.	.	.	.	.
.	.	8e/	.	8ee\	.	.	.	.	.	.	.	.	.	.	.	.	.	.	.	.	.
.	.	8f#/	.	8ff#\	.	.	.	.	.	.	.	.	.	.	.	.	.	.	.	.	.
.	.	8g/J)	.	8gg\J)	.	.	.	.	.	.	.	.	.	.	.	.	.	.	.	.	.
=91	=91	=91	=91	=91	=91	=91	=91	=91	=91	=91	=91	=91	=91	=91	=91	=91	=91	=91	=91	=91	=91
2G\]	.	(8a#X/L	.	(8aa#X\L	.	2.r	.	.	2.r	.	.	2.r	.	.	2.r	.	.	2.r	.	2.r	.
.	.	8b/	.	8bb\	.	.	.	.	.	.	.	.	.	.	.	.	.	.	.	.	.
.	.	8an/	.	8aan\	.	.	.	.	.	.	.	.	.	.	.	.	.	.	.	.	.
.	.	8g/	.	8gg\	.	.	.	.	.	.	.	.	.	.	.	.	.	.	.	.	.
4G#X\	.	8f#/	.	8ff#\	.	.	.	.	.	.	.	.	.	.	.	.	.	.	.	.	.
.	.	8e/J)	.	8ee\J)	.	.	.	.	.	.	.	.	.	.	.	.	.	.	.	.	.
=92	=92	=92	=92	=92	=92	=92	=92	=92	=92	=92	=92	=92	=92	=92	=92	=92	=92	=92	=92	=92	=92
!	!	!	!	!	!	!	!	!	!	!	!	!	!	!	!LO:TX:b:Bi:t=Verte Solo	!	!	!	!	!	!
4A\	.	4d/	.	4ddn\	.	2.r	.	.	2.r	.	.	2.r	.	.	2.r	.	.	2.r	.	2.r	.
8A\L	.	4c#/	.	4cc#\	.	.	.	.	.	.	.	.	.	.	.	.	.	.	.	.	.
8Gn\	.	.	.	.	.	.	.	.	.	.	.	.	.	.	.	.	.	.	.	.	.
!	!	!LO:TX:b:t=Verte	!	!	!	!	!	!	!	!	!	!	!	!	!	!	!	!	!	!	!
8F#\	.	4r	.	4r	.	.	.	.	.	.	.	.	.	.	.	.	.	.	.	.	.
8E\J	.	.	.	.	.	.	.	.	.	.	.	.	.	.	.	.	.	.	.	.	.
=93	=93	=93	=93	=93	=93	=93	=93	=93	=93	=93	=93	=93	=93	=93	=93	=93	=93	=93	=93	=93	=93
!LO:TX:a:t=Solo	!	!	!LO:DY:a	!	!LO:DY:a	!	!	!	!	!	!	!	!	!	!	!	!	!	!	!	!
8D\L	.	8f#/L	p	4.a/	p	2.r	.	.	2.r	.	.	2.r	.	.	4.a\	quo-	.	2.r	.	2.r	.
8D\	.	8f#/	.	.	.	.	.	.	.	.	.	.	.	.	.	.	.	.	.	.	.
8D\	.	8f#/	.	.	.	.	.	.	.	.	.	.	.	.	.	.	.	.	.	.	.
8D\	.	8f#/	.	8b/	.	.	.	.	.	.	.	.	.	.	8b\	-ni-	.	.	.	.	.
8D\	.	8f#/	.	4a/	.	.	.	.	.	.	.	.	.	.	4a\	-am	.	.	.	.	.
8D\J	.	8f#/J	.	.	.	.	.	.	.	.	.	.	.	.	.	.	.	.	.	.	.
=94	=94	=94	=94	=94	=94	=94	=94	=94	=94	=94	=94	=94	=94	=94	=94	=94	=94	=94	=94	=94	=94
*	*	*	*	*	*	*	*	*	*	*	*	*	*	*	*	*ij	*	*	*	*	*
8C#/L	.	8e/L	.	4.a/	.	2.r	.	.	2.r	.	.	2.r	.	.	4.a\	quo-	.	2.r	.	2.r	.
8C#/	.	8e/	.	.	.	.	.	.	.	.	.	.	.	.	.	.	.	.	.	.	.
8C#/	.	8e/	.	.	.	.	.	.	.	.	.	.	.	.	.	.	.	.	.	.	.
8C#/	.	8e/	.	8b/	.	.	.	.	.	.	.	.	.	.	8b\	-ni-	.	.	.	.	.
8C#/	.	8e/	.	4a/	.	.	.	.	.	.	.	.	.	.	4a\	-am	.	.	.	.	.
8C#/J	.	8e/J	.	.	.	.	.	.	.	.	.	.	.	.	.	.	.	.	.	.	.
*	*	*	*	*	*	*	*	*	*	*	*	*	*	*	*	*Xij	*	*	*	*	*
=95	=95	=95	=95	=95	=95	=95	=95	=95	=95	=95	=95	=95	=95	=95	=95	=95	=95	=95	=95	=95	=95
8D\L	.	8f#/L	.	4a/	.	2.r	.	.	2.r	.	.	2.r	.	.	4a\	tu	.	2.r	.	2.r	.
8D\	.	8f#/	.	.	.	.	.	.	.	.	.	.	.	.	.	.	.	.	.	.	.
8D\	.	8f#/	.	8dd/L	.	.	.	.	.	.	.	.	.	.	8dd\L	So-	.	.	.	.	.
8D\	.	8f#/	.	8a/	.	.	.	.	.	.	.	.	.	.	8a\J	.	.	.	.	.	.
8D\	.	8f#/	.	8g/	.	.	.	.	.	.	.	.	.	.	8g/L	-lus	.	.	.	.	.
8D\J	.	8f#/J	.	8f#/J	.	.	.	.	.	.	.	.	.	.	8f#/J	.	.	.	.	.	.
=96	=96	=96	=96	=96	=96	=96	=96	=96	=96	=96	=96	=96	=96	=96	=96	=96	=96	=96	=96	=96	=96
8C#/L	.	8e/L	.	4e/	.	2.r	.	.	2.r	.	.	2.r	.	.	4e/	Sanc-	.	2.r	.	2.r	.
8C#/	.	8e/	.	.	.	.	.	.	.	.	.	.	.	.	.	.	.	.	.	.	.
8C#/	.	8e/	.	4f#/	.	.	.	.	.	.	.	.	.	.	4f#/	.	.	.	.	.	.
8C#/	.	8e/	.	.	.	.	.	.	.	.	.	.	.	.	.	.	.	.	.	.	.
8C#/	.	8e/	.	4g/	.	.	.	.	.	.	.	.	.	.	4g/	.	.	.	.	.	.
8C#/J	.	8e/J	.	.	.	.	.	.	.	.	.	.	.	.	.	.	.	.	.	.	.
=97	=97	=97	=97	=97	=97	=97	=97	=97	=97	=97	=97	=97	=97	=97	=97	=97	=97	=97	=97	=97	=97
4D\	.	8f#/	.	8f#/	.	2.r	.	.	2.r	.	.	2.r	.	.	4f#/	-tus	.	2.r	.	2.r	.
.	.	8r	.	8r	.	.	.	.	.	.	.	.	.	.	.	.	.	.	.	.	.
4r	.	8ff#\	.	8aa\	.	.	.	.	.	.	.	.	.	.	4r	.	.	.	.	.	.
.	.	8r	.	8r	.	.	.	.	.	.	.	.	.	.	.	.	.	.	.	.	.
4r	.	8ee\	.	8gg\	.	.	.	.	.	.	.	.	.	.	4r	.	.	.	.	.	.
.	.	8r	.	8r	.	.	.	.	.	.	.	.	.	.	.	.	.	.	.	.	.
=98	=98	=98	=98	=98	=98	=98	=98	=98	=98	=98	=98	=98	=98	=98	=98	=98	=98	=98	=98	=98	=98
2.r	.	8dd\	.	8ff#\	.	2.r	.	.	2.r	.	.	2.r	.	.	2.r	.	.	2.r	.	2.r	.
.	.	8r	.	8r	.	.	.	.	.	.	.	.	.	.	.	.	.	.	.	.	.
.	.	8ee\	.	8gg\	.	.	.	.	.	.	.	.	.	.	.	.	.	.	.	.	.
.	.	8r	.	8r	.	.	.	.	.	.	.	.	.	.	.	.	.	.	.	.	.
.	.	8cc#\	.	8ee\	.	.	.	.	.	.	.	.	.	.	.	.	.	.	.	.	.
.	.	8r	.	8r	.	.	.	.	.	.	.	.	.	.	.	.	.	.	.	.	.
=99	=99	=99	=99	=99	=99	=99	=99	=99	=99	=99	=99	=99	=99	=99	=99	=99	=99	=99	=99	=99	=99
*tremolo	*	*tremolo	*	*	*	*	*	*	*	*	*	*	*	*	*	*	*	*	*	*	*
8D\L	.	8f#/L	.	4.a/	.	2.r	.	.	2.r	.	.	2.r	.	.	4.a\	quo-	.	2.r	.	2.r	.
8D\	.	8f#/	.	.	.	.	.	.	.	.	.	.	.	.	.	.	.	.	.	.	.
8D\	.	8f#/	.	.	.	.	.	.	.	.	.	.	.	.	.	.	.	.	.	.	.
8D\	.	8f#/	.	8b/	.	.	.	.	.	.	.	.	.	.	8b\	-ni-	.	.	.	.	.
8D\	.	8f#/	.	4a/	.	.	.	.	.	.	.	.	.	.	4a\	-am	.	.	.	.	.
8D\J	.	8f#/J	.	.	.	.	.	.	.	.	.	.	.	.	.	.	.	.	.	.	.
=100	=100	=100	=100	=100	=100	=100	=100	=100	=100	=100	=100	=100	=100	=100	=100	=100	=100	=100	=100	=100	=100
*	*	*	*	*	*	*	*	*	*	*	*	*	*	*	*	*ij	*	*	*	*	*
8C#/L	.	8e/L	.	4.a/	.	2.r	.	.	2.r	.	.	2.r	.	.	4.a\	quo-	.	2.r	.	2.r	.
8C#/	.	8e/	.	.	.	.	.	.	.	.	.	.	.	.	.	.	.	.	.	.	.
8C#/	.	8e/	.	.	.	.	.	.	.	.	.	.	.	.	.	.	.	.	.	.	.
8C#/	.	8e/	.	8b/	.	.	.	.	.	.	.	.	.	.	8b\	-ni-	.	.	.	.	.
8C#/	.	8e/	.	4a/	.	.	.	.	.	.	.	.	.	.	4a\	-am	.	.	.	.	.
8C#/J	.	8e/J	.	.	.	.	.	.	.	.	.	.	.	.	.	.	.	.	.	.	.
*	*	*	*	*	*	*	*	*	*	*	*	*	*	*	*	*Xij	*	*	*	*	*
=101	=101	=101	=101	=101	=101	=101	=101	=101	=101	=101	=101	=101	=101	=101	=101	=101	=101	=101	=101	=101	=101
8D\L	.	8f#/L	.	4a/	.	2.r	.	.	2.r	.	.	2.r	.	.	4a\	tu	.	2.r	.	2.r	.
8D\	.	8f#/	.	.	.	.	.	.	.	.	.	.	.	.	.	.	.	.	.	.	.
8D\	.	8f#/	.	8dd/L	.	.	.	.	.	.	.	.	.	.	8dd\L	So-	.	.	.	.	.
8D\	.	8f#/	.	8a/	.	.	.	.	.	.	.	.	.	.	8a\J	.	.	.	.	.	.
8D\	.	8f#/	.	8g/	.	.	.	.	.	.	.	.	.	.	8g/L	-lus	.	.	.	.	.
8D\J	.	8f#/J	.	8f#/J	.	.	.	.	.	.	.	.	.	.	8f#/J	.	.	.	.	.	.
=102	=102	=102	=102	=102	=102	=102	=102	=102	=102	=102	=102	=102	=102	=102	=102	=102	=102	=102	=102	=102	=102
8C#/L	.	8e/L	.	4e/	.	2.r	.	.	2.r	.	.	2.r	.	.	4e/	Do-	.	2.r	.	2.r	.
8C#/	.	8e/	.	.	.	.	.	.	.	.	.	.	.	.	.	.	.	.	.	.	.
8C#/	.	8e/	.	4f#/	.	.	.	.	.	.	.	.	.	.	4f#/	.	.	.	.	.	.
8C#/	.	8e/	.	.	.	.	.	.	.	.	.	.	.	.	.	.	.	.	.	.	.
8C#/	.	8e/	.	4g/	.	.	.	.	.	.	.	.	.	.	4g/	-mi-	.	.	.	.	.
8C#/J	.	8e/J	.	.	.	.	.	.	.	.	.	.	.	.	.	.	.	.	.	.	.
*Xtremolo	*	*Xtremolo	*	*	*	*	*	*	*	*	*	*	*	*	*	*	*	*	*	*	*
=103	=103	=103	=103	=103	=103	=103	=103	=103	=103	=103	=103	=103	=103	=103	=103	=103	=103	=103	=103	=103	=103
4D\	.	8f#/	.	8f#/	.	2.r	.	.	2.r	.	.	2.r	.	.	4f#/	-nus	.	2.r	.	2.r	.
.	.	8r	.	8r	.	.	.	.	.	.	.	.	.	.	.	.	.	.	.	.	.
4r	.	8a/	.	8ff#\	.	.	.	.	.	.	.	.	.	.	4r	.	.	.	.	.	.
.	.	8r	.	8r	.	.	.	.	.	.	.	.	.	.	.	.	.	.	.	.	.
4r	.	8g/	.	8ee\	.	.	.	.	.	.	.	.	.	.	4r	.	.	.	.	.	.
.	.	8r	.	8r	.	.	.	.	.	.	.	.	.	.	.	.	.	.	.	.	.
=104	=104	=104	=104	=104	=104	=104	=104	=104	=104	=104	=104	=104	=104	=104	=104	=104	=104	=104	=104	=104	=104
2.r	.	8f#/	.	8dd\	.	2.r	.	.	2.r	.	.	2.r	.	.	2.r	.	.	2.r	.	2.r	.
.	.	8r	.	8r	.	.	.	.	.	.	.	.	.	.	.	.	.	.	.	.	.
.	.	8g/	.	8ee\	.	.	.	.	.	.	.	.	.	.	.	.	.	.	.	.	.
.	.	8r	.	8r	.	.	.	.	.	.	.	.	.	.	.	.	.	.	.	.	.
.	.	8e/	.	8cc#\	.	.	.	.	.	.	.	.	.	.	.	.	.	.	.	.	.
.	.	8r	.	8r	.	.	.	.	.	.	.	.	.	.	.	.	.	.	.	.	.
=105	=105	=105	=105	=105	=105	=105	=105	=105	=105	=105	=105	=105	=105	=105	=105	=105	=105	=105	=105	=105	=105
4r	.	4f#/	.	4dd\	.	2.r	.	.	2.r	.	.	2.r	.	.	4dd\	Tu	.	2.r	.	2.r	.
4d\	.	4f#/	.	4a/	.	.	.	.	.	.	.	.	.	.	4a\	So-	.	.	.	.	.
4d\	.	4f#/	.	4a/	.	.	.	.	.	.	.	.	.	.	4a\	-lus	.	.	.	.	.
=106	=106	=106	=106	=106	=106	=106	=106	=106	=106	=106	=106	=106	=106	=106	=106	=106	=106	=106	=106	=106	=106
4r	.	4r	.	4.a/	.	2.r	.	.	2.r	.	.	2.r	.	.	(4.a\	Sanc-	.	2.r	.	2.r	.
4c#\	.	4e/	.	.	.	.	.	.	.	.	.	.	.	.	.	.	.	.	.	.	.
.	.	.	.	8b/	.	.	.	.	.	.	.	.	.	.	8b\)	.	.	.	.	.	.
4c#\	.	4e/	.	4a/	.	.	.	.	.	.	.	.	.	.	4a\	-tus	.	.	.	.	.
=107	=107	=107	=107	=107	=107	=107	=107	=107	=107	=107	=107	=107	=107	=107	=107	=107	=107	=107	=107	=107	=107
4r	.	4r	.	4dd\	.	2.r	.	.	2.r	.	.	2.r	.	.	4dd\	tu	.	2.r	.	2.r	.
!	!	!	!	!LO:N:vis=4.	!	!	!	!	!	!	!	!	!	!	!	!	!	!	!	!	!
4B\	.	4d/	.	4g/	.	.	.	.	.	.	.	.	.	.	4g\	So-	.	.	.	.	.
4B\	.	4d/	.	4g/	.	.	.	.	.	.	.	.	.	.	4g\	-lus	.	.	.	.	.
=108	=108	=108	=108	=108	=108	=108	=108	=108	=108	=108	=108	=108	=108	=108	=108	=108	=108	=108	=108	=108	=108
4r	.	4r	.	4.g/	.	2.r	.	.	2.r	.	.	2.r	.	.	4.g\	Do-	.	2.r	.	2.r	.
4A\	.	4c#/	.	.	.	.	.	.	.	.	.	.	.	.	.	.	.	.	.	.	.
.	.	.	.	8a/	.	.	.	.	.	.	.	.	.	.	8a\	-mi-	.	.	.	.	.
4A\	.	4c#/	.	4g/	.	.	.	.	.	.	.	.	.	.	4g\	-nus	.	.	.	.	.
=109	=109	=109	=109	=109	=109	=109	=109	=109	=109	=109	=109	=109	=109	=109	=109	=109	=109	=109	=109	=109	=109
4r	.	4r	.	2dd\	.	2.r	.	.	2.r	.	.	2.r	.	.	2dd\	tu	.	2.r	.	2.r	.
4G\	.	4B/	.	.	.	.	.	.	.	.	.	.	.	.	.	.	.	.	.	.	.
4G\	.	4B/	.	4dd\	.	.	.	.	.	.	.	.	.	.	4dd\	al-	.	.	.	.	.
=110	=110	=110	=110	=110	=110	=110	=110	=110	=110	=110	=110	=110	=110	=110	=110	=110	=110	=110	=110	=110	=110
4r	.	4r	.	4.dd\	.	2.r	.	.	2.r	.	.	2.r	.	.	4.dd\	-tiſ-	.	2.r	.	2.r	.
4F#\	.	4A/	.	.	.	.	.	.	.	.	.	.	.	.	.	.	.	.	.	.	.
.	.	.	.	8ee\	.	.	.	.	.	.	.	.	.	.	8ee\	-si-	.	.	.	.	.
4F#\	.	4A/	.	4dd\	.	.	.	.	.	.	.	.	.	.	4dd\	-mus	.	.	.	.	.
=111	=111	=111	=111	=111	=111	=111	=111	=111	=111	=111	=111	=111	=111	=111	=111	=111	=111	=111	=111	=111	=111
4G\	.	4B/	.	4gg\	.	2.r	.	.	2.r	.	.	2.r	.	.	4gg\	Je-	.	2.r	.	2.r	.
4G\	.	4b\	.	8gg\L	.	.	.	.	.	.	.	.	.	.	8gg\L	-ſu	.	.	.	.	.
.	.	.	.	8ff#\	.	.	.	.	.	.	.	.	.	.	8ff#\J	.	.	.	.	.	.
4G#X\	.	4b\	.	8ee\	.	.	.	.	.	.	.	.	.	.	8ee\L	.	.	.	.	.	.
.	.	.	.	8dd\J	.	.	.	.	.	.	.	.	.	.	8dd\J	.	.	.	.	.	.
=112	=112	=112	=112	=112	=112	=112	=112	=112	=112	=112	=112	=112	=112	=112	=112	=112	=112	=112	=112	=112	=112
4A\	.	4f#/	.	4dd\	.	2.r	.	.	2.r	.	.	2.r	.	.	4dd\	Chri-	.	2.r	.	2.r	.
8A\L	.	4e/	.	4cc#\	.	.	.	.	.	.	.	.	.	.	4cc#\	-ſte	.	.	.	.	.
8Gn\	.	.	.	.	.	.	.	.	.	.	.	.	.	.	.	.	.	.	.	.	.
!LO:TX:a:t=tutti	!	!	!	!	!	!	!	!	!	!	!	!	!	!	!	!	!	!	!	!	!
8F#\	.	4r	.	4r	.	.	.	.	.	.	.	.	.	.	4r	.	.	.	.	.	.
8E\J	.	.	.	.	.	.	.	.	.	.	.	.	.	.	.	.	.	.	.	.	.
=113	=113	=113	=113	=113	=113	=113	=113	=113	=113	=113	=113	=113	=113	=113	=113	=113	=113	=113	=113	=113	=113
!	!	!LO:TX:a:t=P:problem=mixed beam	!LO:DY:a	!LO:TX:a:t=P:problem=mixed beam	!LO:DY:a	!	!	!	!	!	!	!	!	!	!	!	!	!	!	!	!
4D\	.	16dd\LL	f	16ff#\LL	f	4D\	Cum	.	4A\	Cum	.	4f#\	Cum	.	4dd\	Cum	.	4dd\	.	4ff#\	.
.	.	16d\	.	16d\	.	.	.	.	.	.	.	.	.	.	.	.	.	.	.	.	.
.	.	16d\	.	16d\	.	.	.	.	.	.	.	.	.	.	.	.	.	.	.	.	.
.	.	16d\JJ	.	16d\JJ	.	.	.	.	.	.	.	.	.	.	.	.	.	.	.	.	.
4r	.	16f#/LL	.	16f#/LL	.	4r	.	.	4r	.	.	4r	.	.	4r	.	.	4r	.	4r	.
.	.	16f#/	.	16f#/	.	.	.	.	.	.	.	.	.	.	.	.	.	.	.	.	.
.	.	16d/	.	16d/	.	.	.	.	.	.	.	.	.	.	.	.	.	.	.	.	.
.	.	16d/JJ	.	16d/JJ	.	.	.	.	.	.	.	.	.	.	.	.	.	.	.	.	.
4r	.	16a/LL	.	16a/LL	.	4r	.	.	4r	.	.	4r	.	.	4r	.	.	4r	.	4r	.
.	.	16a/	.	16a/	.	.	.	.	.	.	.	.	.	.	.	.	.	.	.	.	.
.	.	16f#/	.	16f#/	.	.	.	.	.	.	.	.	.	.	.	.	.	.	.	.	.
.	.	16f#/JJ	.	16f#/JJ	.	.	.	.	.	.	.	.	.	.	.	.	.	.	.	.	.
=114	=114	=114	=114	=114	=114	=114	=114	=114	=114	=114	=114	=114	=114	=114	=114	=114	=114	=114	=114	=114	=114
4D\	.	16dd\LL	.	16dd\LL	.	4D\	Cum	.	4A\	Cum	.	4f#\	Cum	.	4dd\	Cum	.	4dd\	.	4ff#\	.
.	.	16dd\	.	16dd\	.	.	.	.	.	.	.	.	.	.	.	.	.	.	.	.	.
.	.	16a\	.	16a\	.	.	.	.	.	.	.	.	.	.	.	.	.	.	.	.	.
.	.	16a\JJ	.	16a\JJ	.	.	.	.	.	.	.	.	.	.	.	.	.	.	.	.	.
!	!	!	!	!	!	!	!	!	!	!	!	!LO:SIC:l:v:s=San-	!	!	!	!	!	!	!	!	!
4d\	.	16ff#\LL	.	16ff#\LL	.	4D\	San-	.	4A\	San-	.	4f#\	Can-	.	4dd\	ſan-	.	4dd\	.	4ff#\	.
.	.	16ff#\	.	16ff#\	.	.	.	.	.	.	.	.	.	.	.	.	.	.	.	.	.
.	.	16dd\	.	16dd\	.	.	.	.	.	.	.	.	.	.	.	.	.	.	.	.	.
.	.	16dd\JJ	.	16dd\JJ	.	.	.	.	.	.	.	.	.	.	.	.	.	.	.	.	.
4D\	.	16aa\LL	.	16aa\LL	.	4D\	-cto	.	4A\	-cto	.	4f#\	-cto	.	4dd\	-cto	.	4dd\	.	4ff#\	.
.	.	16aa\	.	16aa\	.	.	.	.	.	.	.	.	.	.	.	.	.	.	.	.	.
.	.	16ff#\	.	16ff#\	.	.	.	.	.	.	.	.	.	.	.	.	.	.	.	.	.
.	.	16ff#\JJ	.	16ff#\JJ	.	.	.	.	.	.	.	.	.	.	.	.	.	.	.	.	.
=115	=115	=115	=115	=115	=115	=115	=115	=115	=115	=115	=115	=115	=115	=115	=115	=115	=115	=115	=115	=115	=115
!	!	!LO:TX:a:t=P:problem=mixed beam	!	!LO:TX:a:t=P:problem=mixed beam	!	!	!	!	!	!	!	!	!	!	!	!	!	!	!	!	!
4A\	.	16ee\LL	.	16ee\LL	.	8A\	Spi-	.	8A\	Spi-	.	8e\	ſpi-	.	8cc#\	Spi-	.	4a/	.	4ee\	.
.	.	16ee\	.	16ee\	.	.	.	.	.	.	.	.	.	.	.	.	.	.	.	.	.
.	.	16A\	.	16A\	.	8A\	-ri-	.	8A\	-ri-	.	8e\	-ri-	.	8cc#\	-ri-	.	.	.	.	.
.	.	16A\JJ	.	16A\JJ	.	.	.	.	.	.	.	.	.	.	.	.	.	.	.	.	.
4AA/	.	16c#/LL	.	16c#/LL	.	4AA/	-tu	.	4A\	-tu	.	4e\	-tu	.	4cc#\	-tu	.	4a/	.	4ee\	.
.	.	16c#/	.	16c#/	.	.	.	.	.	.	.	.	.	.	.	.	.	.	.	.	.
.	.	16A/	.	16A/	.	.	.	.	.	.	.	.	.	.	.	.	.	.	.	.	.
.	.	16A/JJ	.	16A/JJ	.	.	.	.	.	.	.	.	.	.	.	.	.	.	.	.	.
4r	.	16e/LL	.	16e/LL	.	4r	.	.	4r	.	.	4r	.	.	4r	.	.	4r	.	4r	.
.	.	16e/	.	16e/	.	.	.	.	.	.	.	.	.	.	.	.	.	.	.	.	.
.	.	16c#/	.	16c#/	.	.	.	.	.	.	.	.	.	.	.	.	.	.	.	.	.
.	.	16c#/JJ	.	16c#/JJ	.	.	.	.	.	.	.	.	.	.	.	.	.	.	.	.	.
=116	=116	=116	=116	=116	=116	=116	=116	=116	=116	=116	=116	=116	=116	=116	=116	=116	=116	=116	=116	=116	=116
*	*	*	*	*	*	*	*ij	*	*	*	*	*	*	*	*	*	*	*	*	*	*
4AA/	.	16a/LL	.	16a/LL	.	4A\	Cum	.	4A\	Cum	.	4g\	Cum	.	4ee\	Cum	.	4a/	.	4ee\	.
.	.	16a/	.	16a/	.	.	.	.	.	.	.	.	.	.	.	.	.	.	.	.	.
.	.	16e/	.	16e/	.	.	.	.	.	.	.	.	.	.	.	.	.	.	.	.	.
.	.	16e/JJ	.	16e/JJ	.	.	.	.	.	.	.	.	.	.	.	.	.	.	.	.	.
4A\	.	16cc#\LL	.	16cc#\LL	.	4A\	San-	.	4A\	San-	.	4g\	San-	.	4ee\	San-	.	4a/	.	4ee\	.
.	.	16cc#\	.	16cc#\	.	.	.	.	.	.	.	.	.	.	.	.	.	.	.	.	.
.	.	16a\	.	16a\	.	.	.	.	.	.	.	.	.	.	.	.	.	.	.	.	.
.	.	16a\JJ	.	16a\JJ	.	.	.	.	.	.	.	.	.	.	.	.	.	.	.	.	.
4AA/	.	16ee\LL	.	16ee\LL	.	4A\	-cto	.	4A\	-cto	.	4g\	-cto	.	4ee\	-cto	.	4a/	.	4ee\	.
.	.	16ee\	.	16ee\	.	.	.	.	.	.	.	.	.	.	.	.	.	.	.	.	.
.	.	16cc#\	.	16cc#\	.	.	.	.	.	.	.	.	.	.	.	.	.	.	.	.	.
.	.	16cc#\JJ	.	16cc#\JJ	.	.	.	.	.	.	.	.	.	.	.	.	.	.	.	.	.
=117	=117	=117	=117	=117	=117	=117	=117	=117	=117	=117	=117	=117	=117	=117	=117	=117	=117	=117	=117	=117	=117
!	!	!LO:TX:a:t=P:problem=mixed beam	!	!LO:TX:a:t=P:problem=mixed beam	!	!	!	!	!	!	!	!	!	!	!	!	!	!	!	!	!
4D\	.	16dd\LL	.	16dd\LL	.	8d\	Spi-	.	8A\	Spi-	.	8f#\	Spi-	.	8dd\	Spi-	.	4f#/	.	4dd\	.
.	.	16dd\	.	16dd\	.	.	.	.	.	.	.	.	.	.	.	.	.	.	.	.	.
.	.	16d\	.	16d\	.	8d\	-ri-	.	8A\	-ri-	.	8f#\	-ri-	.	8dd\	-ri-	.	.	.	.	.
.	.	16d\JJ	.	16d\JJ	.	.	.	.	.	.	.	.	.	.	.	.	.	.	.	.	.
4d\	.	16f#/LL	.	16f#/LL	.	4D\	-tu	.	4A\	-tu	.	4f#\	-tu	.	4dd\	-tu	.	4f#/	.	4dd\	.
.	.	16f#/	.	16f#/	.	.	.	.	.	.	.	.	.	.	.	.	.	.	.	.	.
.	.	16d/	.	16d/	.	.	.	.	.	.	.	.	.	.	.	.	.	.	.	.	.
.	.	16d/JJ	.	16d/JJ	.	.	.	.	.	.	.	.	.	.	.	.	.	.	.	.	.
*	*	*	*	*	*	*	*Xij	*	*	*	*	*	*	*	*	*	*	*	*	*	*
4r	.	16a/LL	.	16a/LL	.	4r	.	.	4r	.	.	4r	.	.	4r	.	.	4r	.	4r	.
.	.	16a/	.	16a/	.	.	.	.	.	.	.	.	.	.	.	.	.	.	.	.	.
.	.	16f#/	.	16f#/	.	.	.	.	.	.	.	.	.	.	.	.	.	.	.	.	.
.	.	16f#/JJ	.	16f#/JJ	.	.	.	.	.	.	.	.	.	.	.	.	.	.	.	.	.
=118	=118	=118	=118	=118	=118	=118	=118	=118	=118	=118	=118	=118	=118	=118	=118	=118	=118	=118	=118	=118	=118
4D\	.	16dd\LL	.	16dd\LL	.	4D\	in	.	4A\	in	.	4f#\	in	.	4dd\	in	.	4dd\	.	4ff#\	.
.	.	16dd\	.	16dd\	.	.	.	.	.	.	.	.	.	.	.	.	.	.	.	.	.
.	.	16a\	.	16a\	.	.	.	.	.	.	.	.	.	.	.	.	.	.	.	.	.
.	.	16a\JJ	.	16a\JJ	.	.	.	.	.	.	.	.	.	.	.	.	.	.	.	.	.
4d\	.	16ff#\LL	.	16ff#\LL	.	4D\	glo-	.	4A\	glo-	.	4f#\	glo-	.	4dd\	glo-	.	4dd\	.	4ff#\	.
.	.	16ff#\	.	16ff#\	.	.	.	.	.	.	.	.	.	.	.	.	.	.	.	.	.
.	.	16dd\	.	16dd\	.	.	.	.	.	.	.	.	.	.	.	.	.	.	.	.	.
.	.	16dd\JJ	.	16dd\JJ	.	.	.	.	.	.	.	.	.	.	.	.	.	.	.	.	.
4D\	.	16aa\LL	.	16aa\LL	.	4D\	-ri-	.	4A\	-ri-	.	4f#\	-ri-	.	4dd\	-ri-	.	4dd\	.	4ff#\	.
.	.	16aa\	.	16aa\	.	.	.	.	.	.	.	.	.	.	.	.	.	.	.	.	.
.	.	16ff#\	.	16ff#\	.	.	.	.	.	.	.	.	.	.	.	.	.	.	.	.	.
.	.	16ff#\JJ	.	16ff#\JJ	.	.	.	.	.	.	.	.	.	.	.	.	.	.	.	.	.
=119	=119	=119	=119	=119	=119	=119	=119	=119	=119	=119	=119	=119	=119	=119	=119	=119	=119	=119	=119	=119	=119
!	!	!LO:TX:a:t=P:problem=mixed beam	!	!	!	!	!	!	!	!	!	!	!	!	!	!	!	!	!	!	!
!	!	!LO:TX:a:i:t=dolce	!	!LO:TX:a:Bi:t=dolce	!	!	!	!	!	!	!	!	!	!	!	!	!	!	!	!	!
4A\	.	(8ee\L	.	(8ee\L	.	4A\	-a	.	4A\	-a	.	4e\	-a	.	4cc#\	-a	.	4a/	.	4ee\	.
.	.	8a\	.	8aa\	.	.	.	.	.	.	.	.	.	.	.	.	.	.	.	.	.
4r	.	8g#X\	.	8gg#X\	.	4r	.	.	4r	.	.	4r	.	.	4r	.	.	4r	.	4r	.
.	.	8a\	.	8aa\	.	.	.	.	.	.	.	.	.	.	.	.	.	.	.	.	.
!	!LO:DY:a	!	!	!	!	!	!	!LO:DY:a	!	!	!	!	!	!	!	!	!	!	!	!	!
4r	p	8b\	.	8bb\	.	4r	.	p	4r	.	.	4r	.	.	4r	.	.	4r	.	4r	.
.	.	8cc#\J)	.	8ccc#\J)	.	.	.	.	.	.	.	.	.	.	.	.	.	.	.	.	.
=120	=120	=120	=120	=120	=120	=120	=120	=120	=120	=120	=120	=120	=120	=120	=120	=120	=120	=120	=120	=120	=120
!	!	!	!	!	!	!	!	!	!	!	!LO:DY:a	!	!	!LO:DY:a	!	!	!LO:DY:a	!	!	!	!
4r	.	8dd\L	.	8ddd\L	.	4r	.	.	4r	.	p	4r	.	p	4r	.	p	2.r	.	2.r	.
.	.	8b\J	.	8bb\J	.	.	.	.	.	.	.	.	.	.	.	.	.	.	.	.	.
.	.	8qqa/	.	8qqaa/	.	.	.	.	.	.	.	.	.	.	.	.	.	.	.	.	.
!	!	!	!	!	!	!LO:SIC:v:s=4cn\	!	!	!	!	!	!	!	!	!	!	!	!	!	!	!
4cn\	.	2g#X/	.	2gg#X\	.	4c#\	De-	.	4e\	De-	.	4g#X\	De-	.	4ee\	De-	.	.	.	.	.
4B\	.	.	.	.	.	4B\	-i	.	4e\	-i	.	4g#\	-i	.	4ee\	-i	.	.	.	.	.
=121	=121	=121	=121	=121	=121	=121	=121	=121	=121	=121	=121	=121	=121	=121	=121	=121	=121	=121	=121	=121	=121
4r	.	8ccn\L	.	8cccn\L	.	4r	.	.	4r	.	.	4r	.	.	4r	.	.	2.r	.	2.r	.
.	.	8a\J	.	8aa\J	.	.	.	.	.	.	.	.	.	.	.	.	.	.	.	.	.
.	.	8qqg/	.	8qqgg/	.	.	.	.	.	.	.	.	.	.	.	.	.	.	.	.	.
!	!	!	!	!	!	!	!	!	!	!	!	!	!	!	!LO:SIC:v:s=4dd\	!	!	!	!	!	!
4B\	.	2f#/	.	2ff#\	.	4B\	pa-	.	4f#\	pa-	.	4f#\	pa-	.	4cc#\	pa-	.	.	.	.	.
4A\	.	.	.	.	.	4A\	-tris	.	4f#\	-tris	.	4f#\	-tris	.	4dd\	-tris	.	.	.	.	.
=122	=122	=122	=122	=122	=122	=122	=122	=122	=122	=122	=122	=122	=122	=122	=122	=122	=122	=122	=122	=122	=122
4r	.	8b/L	.	8bb\L	.	4r	.	.	4r	.	.	4r	.	.	4r	.	.	2.r	.	2.r	.
.	.	8g/J	.	8gg\J	.	.	.	.	.	.	.	.	.	.	.	.	.	.	.	.	.
.	.	8qqf#/	.	8qqff#/	.	.	.	.	.	.	.	.	.	.	.	.	.	.	.	.	.
*	*	*	*	*	*	*	*ij	*	*	*	*	*	*ij	*	*	*ij	*	*	*	*	*
4A\	.	2e/	.	2ee\	.	4A\	De-	.	4e\	De-	.	4e\	De-	.	4b\	De-	.	.	.	.	.
4G\	.	.	.	.	.	4G\	-i	.	4e\	-i	.	4e\	-i	.	4b\	-i	.	.	.	.	.
=123	=123	=123	=123	=123	=123	=123	=123	=123	=123	=123	=123	=123	=123	=123	=123	=123	=123	=123	=123	=123	=123
!	!	!	!	!	!	!	!	!	!	!	!	!	!	!	!	!	!	!	!LO:DY:a	!LO:TX:a:t=P:p = p:global:problem	!LO:DY:a
2.F#\	.	(8a/L	.	(8aa\L	.	2.F#\	pa-	.	2.A\	pa-	.	2.f#\	pa-	.	2.dd\	pa-	.	4r	p	4r	p
.	.	8f#/	.	8ff#\	.	.	.	.	.	.	.	.	.	.	.	.	.	.	.	.	.
.	.	8e/	.	8ee\	.	.	.	.	.	.	.	.	.	.	.	.	.	4dd\	.	4ff#\	.
.	.	8d/	.	8dd\	.	.	.	.	.	.	.	.	.	.	.	.	.	.	.	.	.
.	.	8c#/	.	8cc#\	.	.	.	.	.	.	.	.	.	.	.	.	.	4dd\	.	4ff#\	.
.	.	8d/J)	.	8dd\J)	.	.	.	.	.	.	.	.	.	.	.	.	.	.	.	.	.
=124	=124	=124	=124	=124	=124	=124	=124	=124	=124	=124	=124	=124	=124	=124	=124	=124	=124	=124	=124	=124	=124
2.C#/	.	(8d#X/L	.	8dd#X\L	.	2.C#/	-tris	.	2.A\	-tris	.	2.g\	-tris	.	2.ee\	-tris	.	2.ee\	.	2.gg\	.
.	.	8e/	.	8ee\	.	.	.	.	.	.	.	.	.	.	.	.	.	.	.	.	.
.	.	8f#/	.	8ff#\	.	.	.	.	.	.	.	.	.	.	.	.	.	.	.	.	.
.	.	8g/	.	8gg\	.	.	.	.	.	.	.	.	.	.	.	.	.	.	.	.	.
.	.	8a/	.	8aa\	.	.	.	.	.	.	.	.	.	.	.	.	.	.	.	.	.
.	.	8g/J)	.	8gg\J	.	.	.	.	.	.	.	.	.	.	.	.	.	.	.	.	.
*	*	*	*	*	*	*	*Xij	*	*	*	*	*	*Xij	*	*	*Xij	*	*	*	*	*
=125	=125	=125	=125	=125	=125	=125	=125	=125	=125	=125	=125	=125	=125	=125	=125	=125	=125	=125	=125	=125	=125
4D\	.	4f#/	.	8ff#\L	.	4D\	a-	.	2.A\	a-	.	2f#\	a-	.	2dd\	a-	.	2dd\	.	2ff#\	.
.	.	.	.	8dd\J	.	.	.	.	.	.	.	.	.	.	.	.	.	.	.	.	.
4A\	.	8dn/L	.	8f#/L	.	4A\	.	.	.	.	.	.	.	.	.	.	.	.	.	.	.
.	.	8f#/	.	8dd/	.	.	.	.	.	.	.	.	.	.	.	.	.	.	.	.	.
4AA/	.	8c#/	.	8e/	.	4AA/	.	.	.	.	.	4e\	.	.	4cc#\	.	.	4a/	.	4ee\	.
.	.	8e/J	.	8cc#/J	.	.	.	.	.	.	.	.	.	.	.	.	.	.	.	.	.
=126	=126	=126	=126	=126	=126	=126	=126	=126	=126	=126	=126	=126	=126	=126	=126	=126	=126	=126	=126	=126	=126
!	!	!LO:TX:a:t=P:problem=mixed beam	!	!	!	!	!	!	!	!	!	!	!	!	!	!	!	!	!	!	!
!	!LO:DY:a	!	!LO:DY:a	!	!LO:DY:a	!	!	!	!	!	!LO:DY:a	!	!	!	!	!	!	!	!	!	!
4D\	f	8f#\L	f	8dd\L	f	4D\	-men	.	4A\	-men	f	4f#\	-men	.	4dd\	-men	.	4f#/	.	4dd\	.
.	.	8dd\	.	8ff#\	.	.	.	.	.	.	.	.	.	.	.	.	.	.	.	.	.
!	!	!	!	!	!	!	!	!	!	!	!	!	!	!LO:DY:a	!	!	!LO:DY:a	!	!LO:DY:a	!LO:TX:a:t=P:f = f:global:problem	!LO:DY:a
4r	.	8ee\	.	8gg\	.	4r	.	.	4r	.	.	4r	.	f	4r	.	f	4r	f	4r	f
.	.	8ff#\	.	8aa\	.	.	.	.	.	.	.	.	.	.	.	.	.	.	.	.	.
*	*	*	*	*	*	*	*	*	*	*ij	*	*	*	*	*	*	*	*	*	*	*
!LO:SIC:v:s=4A\	!	!	!	!	!	!	!	!	!	!	!	!	!	!	!	!	!	!	!	!	!
4G\	.	8gg\	.	8bb\	.	4A\	a-	.	4c#\	a-	.	4a\	a-	.	4ee\	a-	.	4a/	.	4ee\	.
.	.	8ee\J	.	8ccc#\J	.	.	.	.	.	.	.	.	.	.	.	.	.	.	.	.	.
=127	=127	=127	=127	=127	=127	=127	=127	=127	=127	=127	=127	=127	=127	=127	=127	=127	=127	=127	=127	=127	=127
!	!	!LO:TX:a:t=P:problem=mixed beam	!	!	!	!	!	!	!	!	!	!	!	!	!	!	!	!	!	!	!
4d\	.	8ff#\L	.	8ddd\L	.	4d\	-men	.	4d\	-men	.	4a\	-men	.	4ff#\	-men	.	4dd\	.	4ff#\	.
.	.	8f#\	.	8dd\	.	.	.	.	.	.	.	.	.	.	.	.	.	.	.	.	.
4r	.	8g\	.	8ee\	.	4r	.	.	4r	.	.	4r	.	.	4r	.	.	4r	.	4r	.
.	.	8a\	.	8ff#\	.	.	.	.	.	.	.	.	.	.	.	.	.	.	.	.	.
*	*	*	*	*	*	*	*ij	*	*	*	*	*	*ij	*	*	*	*	*	*	*	*
!	!	!	!	!	!	!	!	!LO:DY:a	!	!	!	!	!	!	!	!	!	!	!	!	!
4A\	.	8b\	.	8gg\	.	4A\	a-	f	4c#\	a-	.	4g\	a-	.	4ee\	a-	.	4a/	.	4ee\	.
.	.	8cc#\J	.	8ee\J	.	.	.	.	.	.	.	.	.	.	.	.	.	.	.	.	.
=128	=128	=128	=128	=128	=128	=128	=128	=128	=128	=128	=128	=128	=128	=128	=128	=128	=128	=128	=128	=128	=128
4D\	.	8dd\L	.	8ff#\L	.	4D\	-men	.	4A\	-men	.	4f#\	-men	.	4dd\	-men	.	4f#/	.	4dd\	.
.	.	8dd\	.	8ff#\	.	.	.	.	.	.	.	.	.	.	.	.	.	.	.	.	.
4r	.	8ee\	.	8gg\	.	4r	.	.	4r	.	.	4r	.	.	4r	.	.	4r	.	4r	.
.	.	8ff#\	.	8aa\	.	.	.	.	.	.	.	.	.	.	.	.	.	.	.	.	.
*	*	*	*	*	*	*	*	*	*	*	*	*	*	*	*	*ij	*	*	*	*	*
4A\	.	8gg\	.	8bb\	.	4A\	a-	.	4c#\	a-	.	4a\	a-	.	4ee\	a-	.	4a/	.	4ee\	.
.	.	8ee\J	.	8ccc#\J	.	.	.	.	.	.	.	.	.	.	.	.	.	.	.	.	.
=129	=129	=129	=129	=129	=129	=129	=129	=129	=129	=129	=129	=129	=129	=129	=129	=129	=129	=129	=129	=129	=129
!	!	!LO:TX:a:t=P:problem=mixed beam	!	!	!	!	!	!	!	!	!	!	!	!	!	!	!	!	!	!	!
4d\	.	8ff#\L	.	8ddd\L	.	4d\	-men	.	4d\	-men	.	4a\	-men	.	4ff#\	-men	.	4dd\	.	4ff#\	.
.	.	8f#\	.	8dd\	.	.	.	.	.	.	.	.	.	.	.	.	.	.	.	.	.
4r	.	8g\	.	8ee\	.	4r	.	.	4r	.	.	4r	.	.	4r	.	.	4r	.	4r	.
.	.	8a\	.	8ff#\	.	.	.	.	.	.	.	.	.	.	.	.	.	.	.	.	.
4A\	.	8b\	.	8gg\	.	4A\	a-	.	4c#\	a-	.	4g\	a-	.	4ee\	a-	.	4a/	.	4ee\	.
.	.	8cc#\J	.	8ee\J	.	.	.	.	.	.	.	.	.	.	.	.	.	.	.	.	.
=130	=130	=130	=130	=130	=130	=130	=130	=130	=130	=130	=130	=130	=130	=130	=130	=130	=130	=130	=130	=130	=130
4D\	.	4dd\	.	4ff# 4a 4d\	.	4D\	-men	.	4A\	-men	.	4f#\	-men	.	4dd\	-men	.	4f#/	.	4dd\	.
*	*	*	*	*	*	*	*Xij	*	*	*Xij	*	*	*Xij	*	*	*Xij	*	*	*	*	*
4r	.	4r	.	4r	.	4r	.	.	4r	.	.	4r	.	.	4r	.	.	4r	.	4r	.
!	!	!	!	!	!	!	!	!	!	!	!	!LO:TX:b:Bi:t=Volti Patrem	!	!	!	!	!	!	!	!	!
4r	.	4r	.	4r	.	4r	.	.	4r	.	.	4r	.	.	4r	.	.	4r	.	4r	.
==	==	==	==	==	==	==	==	==	==	==	==	==	==	==	==	==	==	==	==	==	==
*-	*-	*-	*-	*-	*-	*-	*-	*-	*-	*-	*-	*-	*-	*-	*-	*-	*-	*-	*-	*-	*-
!!title: @{OTL};
!!!RDF**kern: > = above
!!!RDF**kern: < = below
!!!RDF**dynam: > = "dim", fontstyle= "bold-italic"
!!!RDF**dynam: < = "cresc", fontstyle= "bold-italic"
!!!RDF**kern: | = vertical stroke
!!!RDF**kern: N = linked
!!!RDF**kern: i = editorial accidental
!!!RDF**kern: l = terminal long
!!!ENC: Andrzej Kubiczek
!!!END: 2020-07-06
!!!EED: Wojciech Jakubiak-Danek
!!!EEV: 2021-12-29
!!!URL-scan: http://repozytorium.nifc.pl/skany/pl-cz-nut--iii-106
!!!ONB-nifc: UWAGA: części Mszy: Kyrie, Gloria, Patrem, Et resurrexit, Sanctus, Benedictus, Osanna, Agnus Dei, Dona nobis
